!!!!SEGMENT: pl-sa--136-a-iii-36--002_marescalchi-luigi--sinfonia-ex-b-andante.krn
!!!cenid: 17xx:582
!!!COM: Marescalchi, Luigi
!!!COM-rismid: pe30002079
!!!CDT: 1745-1812
!!!CNT: Italian
!!!OPR: Sinfonia ex B
!!!OTL: Andante
!!!OMV: 002
!!!PDT:
!!!AGN: Secular
!!!SMS-siglum: PL-SA
!!!SMS-shelfmark: 136/A III 36
!!!SMS-shelfwork: 001-002 M
!!!SMS-variant:
!!!SMS-altvar:
!!!NIFC-rismid:
!!!URL-scan: http://bc.bdsandomierz.pl/dlibra/publication/1493/edition/1461/content
!!!ONB-nifc: UWAGA: części Sinfonii: Allegro, Andante, Presto
**kern	**dynam	**kern	**kern	**kern	**dynam	**kern	**dynam	**kern	**kern	**kern	**kern	**kern	**kern
*part11	*part11	*part10	*part9	*part8	*part8	*part7	*part7	*part6	*part5	*part4	*part3	*part2	*part1
*group3	*	*group3	*group3	*group3	*	*group3	*	*group2	*group2	*group2	*group2	*group1	*group1
*staff11	*	*staff10	*staff9	*staff8	*	*staff7	*	*staff6	*staff5	*staff4	*staff3	*staff2	*staff1
*I"Baſso	*	*I"Viola Obbligato [II]	*I"Viola Obbligato [I]	*I"Violino Secondo	*	*I"Violino Primo	*	*I"Tromba Secondo	*I"Troba Prima	*I"Cornu Secondo	*I"Cornu Primo	*I"Oboe Secondo Obligato	*I"Oboe Primo Obligato
*I'B	*	*I'vla II	*I'vla I	*I'vl II	*	*I'vl I	*	*I'tr II	*I'tr I	*I'cor II	*I'cor I	*I'ob II	*I'ob I
*clefF4	*	*clefC3	*clefC3	*clefG2	*	*clefG2	*	*clefG2	*clefG2	*clefG2	*clefG2	*clefG2	*clefG2
*	*	*	*	*	*	*	*	*ITrd-2c-3	*ITrd-2c-3	*ITrd5c9	*ITrd5c9	*	*
*k[b-e-a-]	*	*k[b-e-a-]	*k[b-e-a-]	*k[b-e-a-]	*	*k[b-e-a-]	*	*k[b-e-a-]	*k[b-e-a-]	*k[b-e-a-]	*k[b-e-a-]	*k[b-e-a-]	*k[b-e-a-]
*E-:	*	*E-:	*E-:	*E-:	*	*E-:	*	*E-:	*E-:	*E-:	*E-:	*E-:	*E-:
*M3/4	*	*M3/4	*M3/4	*M3/4	*	*M3/4	*	*M3/4	*M3/4	*M3/4	*M3/4	*M3/4	*M3/4
=1	=1	=1	=1	=1	=1	=1	=1	=1	=1	=1	=1	=1	=1
!LO:TX:a:t=P:problem:all\right:global	!	!	!	!LO:TX:a:t=P:problem:all\right:global	!	!LO:TX:a:t=P:problem:all\right:global	!	!LO:TX:a:t=P:problem:all\right:global	!LO:TX:a:t=P:problem:all\right:global	!LO:TX:a:t=P:problem:all\right:global	!LO:TX:a:t=P:problem:all\right:global	!LO:TX:a:t=P:problem:all\right:global	!LO:TX:a:t=P:problem:all\right:global
!LO:TX:a:t=P:problem:przy kluczu [A- E- BB-]	!	!LO:TX:a:t=P:problem:przy kluczu [e- A- B-]	!	!LO:TX:a:t=P:problem:przy kluczu [ee- b- a-]	!	!LO:TX:a:t=P:problem:przy kluczu [ee- b- a-]	!	!	!	!	!	!LO:TX:a:t=P:problem:przy kluczu [ee- b- a-]	!LO:TX:a:t=P:problem:przy kluczu [ee- b- a-]
!LO:TX:a:B:t=Andte	!	!LO:TX:a:t=Andante Secunda	!LO:TX:a:t=Andante Prima	!LO:TX:a:t=Andante	!	!LO:TX:a:B:t=Andte	!	!LO:TX:a:B:t=Tacet	!LO:TX:a:B:t=Tacet	!LO:TX:a:B:t=Andte	!LO:TX:a:t=Andte	!LO:TX:a:B:t=Andte	!LO:TX:a:t=Andte
!LO:N:vis=00	!	!	!	!	!	!	!	!	!	!LO:N:vis=00	!LO:N:vis=00	!LO:N:vis=00	!LO:N:vis=00
0.r	.	4e-\	4e-\	(8.e-/L	.	8.gg\L	.	2.ryy	2.ryy	0.r	0.r	0.r	0.r
.	.	.	.	16f/K)	.	16aa-\K	.	.	.	.	.	.	.
!	!	!	!	!LO:TX:a:t=P:problem:niejednoznaczny zapis artykulacji [przyjęto staccato]:global	!	!LO:TX:a:t=P:problem:niejednoznaczny zapis artykulacji [przyjęto staccato]:global	!	!	!	!	!	!	!
.	.	4E-/	4E-/	8g'/	.	8bb-'\	.	.	.	.	.	.	.
.	.	.	.	8g'/	.	8bb-'\	.	.	.	.	.	.	.
.	.	4r	4r	8g'/	.	8bb-'\	.	.	.	.	.	.	.
.	.	.	.	8g'/J	.	8bb-'\J	.	.	.	.	.	.	.
=2	=2	=2	=2	=2	=2	=2	=2	=2	=2	=2	=2	=2	=2
.	.	4B-/	4B-/	(8.g/L	.	8.bb-\L	.	2.ryy	2.ryy	.	.	.	.
.	.	.	.	16a-/Jk)	.	16ccc\Jk	.	.	.	.	.	.	.
.	.	8r	8r	8f/	.	8aa-\	.	.	.	.	.	.	.
!	!	!LO:TX:a:t=P:problem:niejednoznaczny zapis artykulacji [przyjęto staccato]:global	!LO:TX:a:t=P:problem:niejednoznaczny zapis artykulacji [przyjęto staccato]:global	!	!	!	!	!	!	!	!	!	!
.	.	16f'\LL	16a-'\LL	8r	.	8r	.	.	.	.	.	.	.
.	.	16g'\JJ	16b-'\JJ	.	.	.	.	.	.	.	.	.	.
.	.	(16a-\LL	(16cc\LL	4r	.	4r	.	.	.	.	.	.	.
.	.	16g\)	16b-\)	.	.	.	.	.	.	.	.	.	.
.	.	16f'\	16a-'\	.	.	.	.	.	.	.	.	.	.
.	.	16e-'\JJ	16g'\JJ	.	.	.	.	.	.	.	.	.	.
=3	=3	=3	=3	=3	=3	=3	=3	=3	=3	=3	=3	=3	=3
.	.	4B-/	4f\	8.d/L	.	(8.ff\L	.	2.ryy	2.ryy	.	.	.	.
.	.	.	.	16e-/K	.	16gg\K	.	.	.	.	.	.	.
.	.	4B-/	4B-/	8f/J	.	8aa-\J)	.	.	.	.	.	.	.
.	.	.	.	32en/KLL	.	32gg\KLL	.	.	.	.	.	.	.
.	.	.	.	16.f/JJ	.	16.aa-\JJ	.	.	.	.	.	.	.
.	.	4r	4r	32e/KLL	.	32gg\KLL	.	.	.	.	.	.	.
.	.	.	.	16.f/JJ	.	16.aa-\JJ	.	.	.	.	.	.	.
.	.	.	.	32e/KLL	.	32gg\KLL	.	.	.	.	.	.	.
.	.	.	.	16.f/JJ	.	16.aa-\JJ	.	.	.	.	.	.	.
=4	=4	=4	=4	=4	=4	=4	=4	=4	=4	=4	=4	=4	=4
.	.	4e-\	4e-\	8.f#X/L	.	8.aan\L	.	2.ryy	2.ryy	.	.	.	.
.	.	.	.	16g/Jk	.	16bb-\Jk	.	.	.	.	.	.	.
.	.	8r	8r	8e-X/	.	8gg\	.	.	.	.	.	.	.
.	.	16e-'\LL	16g'\LL	8r	.	8r	.	.	.	.	.	.	.
.	.	16f'\JJ	16a-'\JJ	.	.	.	.	.	.	.	.	.	.
.	.	(16g\LL	(16b-\LL	4r	.	4r	.	.	.	.	.	.	.
.	.	16f\)	16a-\)	.	.	.	.	.	.	.	.	.	.
.	.	16e-'\	16g'\	.	.	.	.	.	.	.	.	.	.
.	.	16d'\JJ	16f'\JJ	.	.	.	.	.	.	.	.	.	.
=5	=5	=5	=5	=5	=5	=5	=5	=5	=5	=5	=5	=5	=5
!LO:N:vis=00	!	!LO:TX:a:t=P:problem:powtórzenie tt. 5-9 z partii vla I oznaczone skrótem ÷	!	!	!	!	!	!	!	!LO:N:vis=0	!LO:N:vis=0	!LO:N:vis=00	!LO:N:vis=00
0.r	.	(8e-\Lyy	(8e-\L	8r	.	8.gg\L	.	2.ryy	2.ryy	1.r	1.r	0.r	0.r
.	.	8B-\)yy	8B-\)	4b-\	.	.	.	.	.	.	.	.	.
.	.	.	.	.	.	32aa-X\LL	.	.	.	.	.	.	.
.	.	.	.	.	.	32bb-\JJJ	.	.	.	.	.	.	.
.	.	(8f\yy	(8f\	.	.	8aa-\	.	.	.	.	.	.	.
.	.	8B-\)yy	8B-\)	16dd\LL	.	8r	.	.	.	.	.	.	.
.	.	.	.	16ff\JJ	.	.	.	.	.	.	.	.	.
.	.	(8d\yy	(8d\	(16aa-\LL	.	4r	.	.	.	.	.	.	.
.	.	.	.	16ff\)	.	.	.	.	.	.	.	.	.
.	.	8B-\J)yy	8B-\J)	16dd'\	.	.	.	.	.	.	.	.	.
.	.	.	.	16b-'\JJ	.	.	.	.	.	.	.	.	.
=6	=6	=6	=6	=6	=6	=6	=6	=6	=6	=6	=6	=6	=6
.	.	(8e-\Lyy	(8e-\L	8r	.	8.gg\L	.	2.ryy	2.ryy	.	.	.	.
.	.	8B-\)yy	8B-\)	4b-\	.	.	.	.	.	.	.	.	.
.	.	.	.	.	.	32aa-\LL	.	.	.	.	.	.	.
.	.	.	.	.	.	32bb-\JJJ	.	.	.	.	.	.	.
.	.	(8f\yy	(8f\	.	.	8aa-\	.	.	.	.	.	.	.
.	.	8B-\)yy	8B-\)	16dd\LL	.	8r	.	.	.	.	.	.	.
.	.	.	.	16ff\JJ	.	.	.	.	.	.	.	.	.
.	.	(8d\yy	(8d\	(16aa-\LL	.	4r	.	.	.	.	.	.	.
.	.	.	.	16ff\)	.	.	.	.	.	.	.	.	.
.	.	8B-\J)yy	8B-\J)	16dd'\	.	.	.	.	.	.	.	.	.
.	.	.	.	16b-'\JJ	.	.	.	.	.	.	.	.	.
=7	=7	=7	=7	=7	=7	=7	=7	=7	=7	=7	=7	=7	=7
.	.	8.g\Lyy	8.g\L	4b-\	.	8.ee-\L	.	2.ryy	2.ryy	2.r	2.r	.	.
.	.	16d\Jkyy	16d\Jk	.	.	16ff\Jk	.	.	.	.	.	.	.
.	.	8e-'\Lyy	8e-'\L	4b-\	.	8gg\L	.	.	.	.	.	.	.
.	.	8f'\yy	8f'\	.	.	8aa-\J	.	.	.	.	.	.	.
.	.	8g'\yy	8g'\	32g/KLL	.	32bb-\KLL	.	.	.	.	.	.	.
.	.	.	.	16.e-/JJ	.	16.gg\JJ	.	.	.	.	.	.	.
.	.	8e-'\Jyy	8e-'\J	32g/KLL	.	32bb-\KLL	.	.	.	.	.	.	.
.	.	.	.	16.e-/JJ	.	16.gg\JJ	.	.	.	.	.	.	.
!	!	!	!	!	!	!LO:LB:g=original	!	!	!	!	!	!	!
=8	=8	=8	=8	=8	=8	=8	=8	=8	=8	=8	=8	=8	=8
!	!	!	!	!	!	!P:problem:all\right:global	!	!	!	!	!	!	!
.	.	4B-/yy	4B-/	4e-/	.	4gg\	.	2.ryy	2.ryy	4r	4r	.	.
.	.	4B-/yy	4B-/	4d/	.	4ff\	.	.	.	8r	8r	.	.
.	.	.	.	.	.	.	.	.	.	8B-/L	8B-/L	.	.
.	.	4ryy	4r	4r	.	4r	.	.	.	8B-/	8B-/	.	.
.	.	.	.	.	.	.	.	.	.	8B-/J	8B-/J	.	.
!	!	!	!	!LO:LB:g=original	!	!	!	!	!	!	!	!	!
=9	=9	=9	=9	=9	=9	=9	=9	=9	=9	=9	=9	=9	=9
!	!	!LO:TX:a:t=P:problem:powtórzenie t. 8 oznaczone znakami repetycji	!LO:TX:a:t=P:problem:powtórzenie t. 8 oznaczone znakami repetycji	!P:problem:all\right:global	!	!	!	!	!	!	!	!	!
4E-\	f	4B-/yy	4B-/yy	8.e-/L	.	8.g/L	.	2.ryy	2.ryy	4E-/	4G/	8.ee-\L	8.gg\L
.	.	.	.	16f/Jk	.	16a-/K	.	.	.	.	.	16ff\K	16aa-\K
*	*	*	*	*tremolo	*	*	*	*	*	*	*	*	*
4EE-/	.	4B-/yy	4B-/yy	8g/L	.	8b-/	.	.	.	4r	4r	8gg\	8bb-\
.	.	.	.	8g/	.	8b-/	.	.	.	.	.	8gg\	8bb-\
4r	.	4ryy	4ryy	8g/	.	8b-/	.	.	.	4r	4r	8gg\	8bb-\
.	.	.	.	8g/J	.	8b-/J	.	.	.	.	.	8gg\J	8bb-\J
=10	=10	=10	=10	=10	=10	=10	=10	=10	=10	=10	=10	=10	=10
4BB-/	.	4B-/	4B-/	8.g/L	.	8.b-/L	.	2.ryy	2.ryy	2.r	2.r	8.gg\L	8.bb-\L
.	.	.	.	16a-/Jk	.	16cc/Jk	.	.	.	.	.	16aa-\Jk	16ccc\Jk
4BB-/	.	8r	8r	8f/	.	8a-/	.	.	.	.	.	8ff\L	8aa-\L
.	.	(16f\LL	16a-'\LL	8r	.	8r	.	.	.	.	.	16ff\L	16aa-\L
.	.	16g\JJ)	16b-'\JJ	.	.	.	.	.	.	.	.	16gg\JJ	16bb-\JJ
4r	.	(16a-\LL	(16cc\LL	4r	.	4r	.	.	.	.	.	16aa-\LL	16ccc\LL
.	.	16g\)	16b-\)	.	.	.	.	.	.	.	.	16gg\	16bb-\
.	.	16f'\	16a-'\	.	.	.	.	.	.	.	.	16ff\	16aa-\
.	.	16e-'\JJ	16g'\JJ	.	.	.	.	.	.	.	.	16ee-\JJ	16gg\JJ
=11	=11	=11	=11	=11	=11	=11	=11	=11	=11	=11	=11	=11	=11
4B-\	.	4d\	4f\	(8.d/L	.	8.f/L	.	2.ryy	2.ryy	4B-/	4f\	(8.dd\L	8.ff\L
.	.	.	.	16e-/K	.	16g/K	.	.	.	.	.	16ee-\K	16gg\K
4BB-/	.	4r	4r	8f/J)	.	8a-/J	.	.	.	4r	4r	8ff\J)	8aa-\J
.	.	.	.	32en/KLL	.	32g/KLL	.	.	.	.	.	(32een\KLL	32gg\KLL
.	.	.	.	16.f/JJ	.	16.a-/JJ	.	.	.	.	.	16.ff\JJ)	16.aa-\JJ
4r	.	4r	4r	32e/KLL	.	32g/KLL	.	.	.	4r	4r	(32ee\KLL	32gg\KLL
.	.	.	.	16.f/JJ	.	16.a-/JJ	.	.	.	.	.	16.ff\JJ)	16.aa-\JJ
.	.	.	.	32e/KLL	.	32g/KLL	.	.	.	.	.	32ee\KLL	32gg\KLL
.	.	.	.	16.f/JJ	.	16.a-/JJ	.	.	.	.	.	16.ff\JJ	16.aa-\JJ
=12	=12	=12	=12	=12	=12	=12	=12	=12	=12	=12	=12	=12	=12
4E-\	.	4e-\	4e-\	8.f#X/L	.	8.an/L	.	2.ryy	2.ryy	2.r	2.r	(8.ff#X\L	8.aan\L
.	.	.	.	16g/Jk	.	16b-/Jk	.	.	.	.	.	16gg\Jk	16bb-\Jk
4E-\	.	8r	8r	8e-X/	.	8g/	.	.	.	.	.	8ee-X\L)	8gg'\L
.	.	16e-'\LL	16g'\LL	8r	.	8r	.	.	.	.	.	16ee-\L	16gg'\L
!	!	!	!	!	!	!	!	!	!	!	!	!LO:SIC:s=16ffn:v	!
.	.	16f'\JJ	16a-'\JJ	.	.	.	.	.	.	.	.	16ff#\JJ	16aa-X'\JJ
4r	.	(16g\LL	(16b-\LL	4r	.	4r	.	.	.	.	.	16gg\LL	16bb-\LL
!	!	!	!	!	!	!	!	!	!	!	!	!LO:SIC:s=16ffn:v	!
.	.	16f\)	16a-\)	.	.	.	.	.	.	.	.	16ff#\	16aa-\
.	.	16e-'\	16g'\	.	.	.	.	.	.	.	.	16ee-\	16gg\
.	.	16d'\JJ	16f'\JJ	.	.	.	.	.	.	.	.	16dd\JJ	16ff\JJ
=13	=13	=13	=13	=13	=13	=13	=13	=13	=13	=13	=13	=13	=13
(8E-\L	.	16e-\LL	4e-'\	8r	.	8.g/L	.	2.ryy	2.ryy	4r	4r	8.gg\L	[<2.bb-\
.	.	16B-\	.	.	.	.	.	.	.	.	.	.	.
8BB-\)	.	16B-\	.	4B-/	.	.	.	.	.	.	.	.	.
.	.	16B-\JJ	.	.	.	32a-X/LL	.	.	.	.	.	32aa-\LL	.
.	.	.	.	.	.	32b-/JJJ	.	.	.	.	.	32bb-\JJJ	.
*	*	*2\right	*	*	*	*	*	*	*	*	*	*	*
(8F\	.	2B-\	(4d\	.	.	8a-/	.	.	.	8r	8r	8aa-\	.
!	!	!	!	!	!	!	!	!	!	!	!LO:TX:a:t=P:problem:cztery kropki nad grupą trzech ósemek	!	!
8BB-\)	.	.	.	16d/LL	.	8r	.	.	.	(8B-'/L	(8f'\L	8r	.
.	.	.	.	16f/JJ	.	.	.	.	.	.	.	.	.
(8D\	.	.	4f\)	(16a-/LL	.	4r	.	.	.	8B-'/	8f'\	4r	.
.	.	.	.	16f/)	.	.	.	.	.	.	.	.	.
8BB-\J)	.	.	.	16d'/	.	.	.	.	.	8B-'/J)	8f'\J)	.	.
.	.	.	.	16B-'/JJ	.	.	.	.	.	.	.	.	.
!	!	!LO:LB:g=original	!LO:LB:g=original	!	!	!	!	!	!	!	!	!	!
=14	=14	=14	=14	=14	=14	=14	=14	=14	=14	=14	=14	=14	=14
*	*	*tremolo	*	*	*	*	*	*	*	*	*	*	*
!	!	!	!LO:TX:a:t=P:problem:przy kluczu [e- A- B-]	!	!	!	!	!	!	!	!	!	!
(8E-\L	.	16B-/LL	4e-\	8r	.	8.g/L	.	2.ryy	2.ryy	8e-\	8g\	8.gg\L	2.bb-\_<
.	.	16B-/	.	.	.	.	.	.	.	.	.	.	.
8BB-\)	.	16B-/	.	4B-/	.	.	.	.	.	8r	8r	.	.
.	.	16B-/	.	.	.	32a-/LL	.	.	.	.	.	32aa-\LL	.
.	.	.	.	.	.	32b-/JJJ	.	.	.	.	.	32bb-\JJJ	.
!	!	!	!	!	!	!	!	!	!	!	!LO:N:vis=4	!	!
(8F\	.	16B-/	4d\	.	.	8a-/	.	.	.	8r	8r	8aa-\	.
.	.	16B-/	.	.	.	.	.	.	.	.	.	.	.
8BB-\)	.	16B-/	.	16d/LL	.	8r	.	.	.	(8B-'/L	(8f'\L	8r	.
.	.	16B-/	.	16f/JJ	.	.	.	.	.	.	.	.	.
(8D\	.	16B-/	4f\	(16a-/LL	.	4r	.	.	.	8B-'/	8f'\	4r	.
.	.	16B-/	.	16f/)	.	.	.	.	.	.	.	.	.
8BB-\J)	.	16B-/	.	16d'/	.	.	.	.	.	8B-'/J)	8f'\J)	.	.
.	.	16B-/JJ	.	16B-'/JJ	.	.	.	.	.	.	.	.	.
*	*	*Xtremolo	*	*	*	*	*	*	*	*	*	*	*
!	!	!	!	!	!	!	!	!	!	!	!	!LO:LB:g=original	!
=15	=15	=15	=15	=15	=15	=15	=15	=15	=15	=15	=15	=15	=15
!	!	!LO:TX:a:t=P:problem:powtórzenie tt. 15-24 z partii vla I oznaczone skrótem ÷	!	!	!	!	!	!	!	!	!	!	!
8G\L	.	4e-\yy	4e-\	2e-/	.	8.b-\L	.	2.ryy	2.ryy	8e-\	8g\	2ee-\	8.bb-\L]
8A-\J	.	.	.	.	.	.	.	.	.	8r	8r	.	.
.	.	.	.	.	.	16cc\Jk	.	.	.	.	.	.	16ccc\Jk
4B-\	.	4B-/yy	4B-/	.	.	4e-/	.	.	.	4e-\	4g\	.	4ee-\
!	!	!	!	!	!	!	!	!	!	!	!	!LO:TX:a:t=P:problem:niejednoznaczny zapis ozdobnika [przyjęto mordent]:global	!LO:TX:a:t=P:problem:niejednoznaczny zapis ozdobnika [przyjęto mordent]:global
4BB-/	.	4A-/yy	4A-/	4d/	.	4f/	.	.	.	4B-/	4f\	4ddm\	4ffM\
!	!	!	!	!LO:LB:g=original	!	!	!	!	!	!	!	!	!LO:LB:g=original
=16	=16	=16	=16	=16	=16	=16	=16	=16	=16	=16	=16	=16	=16
4E-\	.	4G/yy	4G/	16e-/LL	p	4e-/	.	2.ryy	2.ryy	4G/	4e-\	4ee-\	4ee-\
.	.	.	.	16g/	.	.	.	.	.	.	.	.	.
.	.	.	.	16b-/	.	.	.	.	.	.	.	.	.
.	.	.	.	16g/JJ	.	.	.	.	.	.	.	.	.
!	!	!	!	!	!	!LO:LB:g=original	!	!	!	!	!	!	!
4r	.	4ryy	4r	16e-/LL	.	8r	.	.	.	4r	4r	4r	4r
.	.	.	.	16g/	.	.	.	.	.	.	.	.	.
.	.	.	.	16b-/	.	8bb-\L	.	.	.	.	.	.	.
.	.	.	.	16g/JJ	.	.	.	.	.	.	.	.	.
.	.	.	.	.	.	8qqaa-/	.	.	.	.	.	.	.
4r	.	4ryy	4r	16e-/LL	.	8gg\	.	.	.	4r	4r	4r	4r
.	.	.	.	16g/	.	.	.	.	.	.	.	.	.
.	.	.	.	.	.	8qqff/	.	.	.	.	.	.	.
.	.	.	.	16b-/	.	8ee-\J	.	.	.	.	.	.	.
.	.	.	.	16g/JJ	.	.	.	.	.	.	.	.	.
=17	=17	=17	=17	=17	=17	=17	=17	=17	=17	=17	=17	=17	=17
!	!	!	!	!	!	!LO:TX:a:t=P:problem:takt dopisany nad pięciolinią	!	!	!	!	!	!LO:TX:a:t=P:problem:skreślone takty	!LO:TX:a:t=15
!LO:N:vis=00	!	!LO:N:vis=0	!LO:N:vis=0	!	!	!	!	!	!	!LO:N:vis=00	!LO:N:vis=00	!LO:N:vis=00	!LO:N:vis=00
0.r	.	1.ryy	1.r	16d/LL	.	4ff\	.	2.ryy	2.ryy	0.r	0.r	0.r	0.r
.	.	.	.	16f/	.	.	.	.	.	.	.	.	.
.	.	.	.	16b-/	.	.	.	.	.	.	.	.	.
.	.	.	.	16f/JJ	.	.	.	.	.	.	.	.	.
.	.	.	.	16d/LL	.	8r	.	.	.	.	.	.	.
.	.	.	.	16f/	.	.	.	.	.	.	.	.	.
.	.	.	.	16b-/	.	16bb-\LL	.	.	.	.	.	.	.
.	.	.	.	16f/JJ	.	16ccc\JJ	.	.	.	.	.	.	.
.	.	.	.	16d/LL	.	16ddd\LL	.	.	.	.	.	.	.
.	.	.	.	16f/	.	16aan\	.	.	.	.	.	.	.
.	.	.	.	16b-/	.	16bb-\	.	.	.	.	.	.	.
.	.	.	.	16d/JJ	.	16ff\JJ	.	.	.	.	.	.	.
=18	=18	=18	=18	=18	=18	=18	=18	=18	=18	=18	=18	=18	=18
.	.	.	.	16c/LL	.	4ff\	.	2.ryy	2.ryy	.	.	.	.
.	.	.	.	16e-/	.	.	.	.	.	.	.	.	.
.	.	.	.	16g/	.	.	.	.	.	.	.	.	.
.	.	.	.	16f/JJ	.	.	.	.	.	.	.	.	.
.	.	.	.	16e-/LL	.	8r	.	.	.	.	.	.	.
.	.	.	.	16d/	.	.	.	.	.	.	.	.	.
.	.	.	.	16c/	.	16aan\LL	.	.	.	.	.	.	.
.	.	.	.	16B-/JJ	.	16bb-\JJ	.	.	.	.	.	.	.
.	.	.	.	16An/LL	.	8ccc\L	.	.	.	.	.	.	.
.	.	.	.	16B-/	.	.	.	.	.	.	.	.	.
.	.	.	.	16c/	.	8ee-\J	.	.	.	.	.	.	.
.	.	.	.	16A/JJ	.	.	.	.	.	.	.	.	.
=19	=19	=19	=19	=19	=19	=19	=19	=19	=19	=19	=19	=19	=19
.	.	(16B-\LLyy	(16B-\LL	(4B-/	.	4dd\	.	2.ryy	2.ryy	.	.	.	.
.	.	16d\yy	16d\	.	.	.	.	.	.	.	.	.	.
.	.	16c\yy	16c\	.	.	.	.	.	.	.	.	.	.
.	.	16d\JJyy	16d\JJ	.	.	.	.	.	.	.	.	.	.
!	!	!	!	!LO:TX:a:t=P:problem:pauzy szesnastkowe jak ósemkowe:global	!	!LO:TX:a:t=P:problem:pauzy szesnastkowe jak ósemkowe:global	!	!	!	!	!	!	!
.	.	16B-\LLyy	16B-\LL	16r	.	16r	.	.	.	.	.	.	.
.	.	16d\yy	16d\	16f/LL	.	(16ff\LL	.	.	.	.	.	.	.
.	.	16c\yy	16c\	16en/	.	16een\	.	.	.	.	.	.	.
.	.	16d\JJyy	16d\JJ	16f/JJ	.	16ff\JJ	.	.	.	.	.	.	.
.	.	16e-\LLyy	16e-\LL	16g/LL	.	16gg\LL	.	.	.	.	.	.	.
.	.	16g\yy	16g\	16b-/	.	16bb-\	.	.	.	.	.	.	.
.	.	16f\yy	16f\	16an/	.	16aan\	.	.	.	.	.	.	.
.	.	16e-\JJ)yy	16e-\JJ)	16g/JJ)	.	16gg\JJ)	.	.	.	.	.	.	.
=20	=20	=20	=20	=20	=20	=20	=20	=20	=20	=20	=20	=20	=20
.	.	(16B-\LLyy	(16B-\LL	4f/	.	4ff\	.	2.ryy	2.ryy	.	.	.	.
.	.	16d\yy	16d\	.	.	.	.	.	.	.	.	.	.
.	.	16c\yy	16c\	.	.	.	.	.	.	.	.	.	.
.	.	16d\JJyy	16d\JJ	.	.	.	.	.	.	.	.	.	.
.	.	16B-\LLyy	16B-\LL	16r	.	16r	.	.	.	.	.	.	.
.	.	16d\yy	16d\	16f/LL	.	16ff\LL	.	.	.	.	.	.	.
.	.	16c\yy	16c\	16en/	.	16een\	.	.	.	.	.	.	.
.	.	16d\JJyy	16d\JJ	16f/JJ	.	16ff\JJ	.	.	.	.	.	.	.
!	!	!	!	!	!	!LO:SIC:s=16gg:v	!	!	!	!	!	!	!
.	.	16e-\LLyy	16e-\LL	16g/LL	.	16ff\LL	.	.	.	.	.	.	.
.	.	16g\yy	16g\	16b-/	.	16bb-\	.	.	.	.	.	.	.
.	.	16f\yy	16f\	16an/	.	16aan\	.	.	.	.	.	.	.
.	.	16e-\JJ)yy	16e-\JJ)	16g/JJ	.	16gg\JJ	.	.	.	.	.	.	.
=21	=21	=21	=21	=21	=21	=21	=21	=21	=21	=21	=21	=21	=21
!LO:N:vis=0	!	!	!	!	!	!	!	!	!	!LO:N:vis=00	!LO:N:vis=00	!LO:N:vis=00	!LO:N:vis=00
1.r	.	16d\LLyy	16d\LL	16f'/LL	.	16ff'\LL	.	2.ryy	2.ryy	0.r	0.r	0.r	0.r
.	.	16b-'\yy	16b-'\	16dd'/	.	16ddd'\	.	.	.	.	.	.	.
.	.	16an'\yy	16an'\	16cc'/	.	16ccc'\	.	.	.	.	.	.	.
.	.	16g'\JJyy	16g'\JJ	16b-'/JJ	.	16bb-'\JJ	.	.	.	.	.	.	.
.	.	16f'\LLyy	16f'\LL	16an'/LL	.	16aan'\LL	.	.	.	.	.	.	.
.	.	16e-'\yy	16e-'\	16g'/	.	16gg'\	.	.	.	.	.	.	.
.	.	16d'\yy	16d'\	16f'/	.	16ff'\	.	.	.	.	.	.	.
.	.	16c'\JJyy	16c'\JJ	16e-'/JJ	.	16ee-'\JJ	.	.	.	.	.	.	.
.	.	16B-'\LLyy	16B-'\LL	16d'/LL	.	16dd'\LL	.	.	.	.	.	.	.
.	.	16c'\yy	16c'\	16e-'/	.	16ee-'\	.	.	.	.	.	.	.
.	.	16d'\yy	16d'\	16f'/	.	16ff'\	.	.	.	.	.	.	.
.	.	16e-'\JJyy	16e-'\JJ	16g'/JJ	.	16gg'\JJ	.	.	.	.	.	.	.
=22	=22	=22	=22	=22	=22	=22	=22	=22	=22	=22	=22	=22	=22
.	.	8d\Lyy	8d\L	8.f/L	.	8.ff\L	.	2.ryy	2.ryy	.	.	.	.
.	.	8e-\Jyy	8e-\J	.	.	.	.	.	.	.	.	.	.
.	.	.	.	16e-/Jk	.	16gg\Jk	.	.	.	.	.	.	.
.	.	4f\yy	4f\	4d/	.	4b-\	.	.	.	.	.	.	.
.	.	4An/yy	4An/	4e-/	.	4cc\	.	.	.	.	.	.	.
=23	=23	=23	=23	=23	=23	=23	=23	=23	=23	=23	=23	=23	=23
!LO:N:vis=1	!	!	!	!	!	!	!	!	!	!	!	!	!
2.r	.	4B-/yy	4B-/	4d/	.	2.b-\	.	2.ryy	2.ryy	.	.	.	.
.	.	16B-/LLyy	16B-/LL	16d/LL	.	.	.	.	.	.	.	.	.
.	.	16An/yy	16An/	16c/	.	.	.	.	.	.	.	.	.
.	.	16B-/yy	16B-/	16d/	.	.	.	.	.	.	.	.	.
.	.	16c/JJyy	16c/JJ	16e-/JJ	.	.	.	.	.	.	.	.	.
.	.	16d\LLyy	16d\LL	16f/LL	.	.	.	.	.	.	.	.	.
.	.	16e-\yy	16e-\	16g/	.	.	.	.	.	.	.	.	.
.	.	16f\yy	16f\	16a-X/	.	.	.	.	.	.	.	.	.
.	.	16d\JJyy	16d\JJ	16f/JJ	.	.	.	.	.	.	.	.	.
!	!	!	!	!LO:PB:g=original	!	!	!	!	!	!	!	!	!
=24	=24	=24	=24	=24	=24	=24	=24	=24	=24	=24	=24	=24	=24
4E-\	p	8.e-\Lyy	8.e-\L	(8.g/L	.	8.gg\L	.	2.ryy	2.ryy	.	.	.	.
.	.	16f\Jkyy	16f\Jk	16a-/Jk)	.	16aa-Xi\Jk	.	.	.	.	.	.	.
*	*	*2\right	*2\right	*	*	*	*	*	*	*	*	*	*
*	*	*tremolo	*tremolo	*	*	*tremolo	*	*	*	*	*	*	*
!	!	!	!	!LO:TX:a:t=P:problem:4 kropki nad nutą	!	!	!	!	!	!	!	!	!
4EE-/	.	8g\yyL	8g\L	8b-'\L	.	8bb-\L	.	.	.	.	.	.	.
.	.	8g\yy	8g\	8b-'\	.	8bb-\	.	.	.	.	.	.	.
4r	.	8g\yy	8g\	8b-'\	.	8bb-\	.	.	.	.	.	.	.
.	.	8g\yyJ	8g\J	8b-'\J	.	8bb-\J	.	.	.	.	.	.	.
*	*	*Xtremolo	*Xtremolo	*	*	*	*	*	*	*	*	*	*
!LO:LB:g=original	!	!LO:LB:g=original	!LO:LB:g=original	!	!	!LO:LB:g=original	!	!	!	!	!	!	!
=25	=25	=25	=25	=25	=25	=25	=25	=25	=25	=25	=25	=25	=25
!	!	!	!	!	!	!	!	!	!	!LO:N:vis=00	!LO:N:vis=00	!LO:N:vis=00	!LO:N:vis=00
4BB-/	.	8.g\L	8.g\L	(8.b-\L	.	8.bb-\L	.	2.ryy	2.ryy	0.r	0.r	0.r	0.r
.	.	16a-\Jk	16a-\Jk	16cc\Jk)	.	16ccc\Jk	.	.	.	.	.	.	.
4BB-/	.	8f'\L	8f\L	8a-/	.	8aa-\	.	.	.	.	.	.	.
.	.	(16f'\L	16a-'\L	8r	.	8r	.	.	.	.	.	.	.
.	.	16g\JJ)	16b-'\JJ	.	.	.	.	.	.	.	.	.	.
4r	.	(16a-\LL	(16cc\LL	4r	.	4r	.	.	.	.	.	.	.
.	.	16g\)	16b-\)	.	.	.	.	.	.	.	.	.	.
.	.	16f'\	16a-'\	.	.	.	.	.	.	.	.	.	.
.	.	16e-'\JJ	16g'\JJ	.	.	.	.	.	.	.	.	.	.
=26	=26	=26	=26	=26	=26	=26	=26	=26	=26	=26	=26	=26	=26
!	!	!LO:TX:a:t=P:problem:powtórzenie t. 26 z partii vla I oznaczone skrótem ÷	!	!	!	!	!	!	!	!	!	!	!
4B-\	.	8.d\Lyy	8.d\L	(8.f/L	.	(8.ff\L	.	2.ryy	2.ryy	.	.	.	.
.	.	16e-\Kyy	16e-\K	16g/K	.	16gg\K	.	.	.	.	.	.	.
4BB-/	.	8f\Jyy	8f\J	8a-/J)	.	8aa-\J)	.	.	.	.	.	.	.
.	.	32en\KLLyy	32en\KLL	32g/KLL	.	(32gg\KLL	.	.	.	.	.	.	.
.	.	16.f\JJyy	16.f\JJ	16.a-/JJ	.	16.aa-\JJ)	.	.	.	.	.	.	.
4r	.	32e\KLLyy	32e\KLL	32g/KLL	.	(32gg\KLL	.	.	.	.	.	.	.
.	.	16.f\JJyy	16.f\JJ	16.a-/JJ	.	16.aa-\JJ)	.	.	.	.	.	.	.
.	.	32e\KLLyy	32e\KLL	32g/KLL	.	(32gg\KLL	.	.	.	.	.	.	.
.	.	16.f\JJyy	16.f\JJ	16.a-/JJ	.	16.aa-\JJ)	.	.	.	.	.	.	.
=27	=27	=27	=27	=27	=27	=27	=27	=27	=27	=27	=27	=27	=27
4E-\	.	8.f#X\L	8.f#X\L	8.an/L	.	(8.aan\L	.	2.ryy	2.ryy	.	.	.	.
.	.	16g\Jk	16g\Jk	16b-/Jk	.	16bb-\Jk)	.	.	.	.	.	.	.
4E-\	.	8e-X\L	8e-X\L	8g/	.	8gg\	.	.	.	.	.	.	.
.	.	16g\L	16g\L	8r	.	8r	.	.	.	.	.	.	.
.	.	16a-\JJ	16a-\JJ	.	.	.	.	.	.	.	.	.	.
4r	.	16b-\LL	(16b-\LL	4r	.	4r	.	.	.	.	.	.	.
.	.	16a-\	16a-\)	.	.	.	.	.	.	.	.	.	.
.	.	16g\	16g'\	.	.	.	.	.	.	.	.	.	.
!	!	!LO:SIC:s=16ffn:v	!LO:SIC:s=16ffn:v	!	!	!	!	!	!	!	!	!	!
.	.	16f#\JJ	16f#'\JJ	.	.	.	.	.	.	.	.	.	.
=28	=28	=28	=28	=28	=28	=28	=28	=28	=28	=28	=28	=28	=28
!LO:N:vis=00	!	!LO:TX:a:t=P:problem:powtórzenie tt. 28-32 z partii vla I oznaczone skrótem ÷	!	!	!	!	!	!	!	!	!	!	!
0.r	.	(8e-\Lyy	(8e-\L	8r	.	(8.gg\L	.	2.ryy	2.ryy	.	.	.	.
.	.	8B-\)yy	8B-\)	4b-\	.	.	.	.	.	.	.	.	.
.	.	.	.	.	.	32aa-X\LL	.	.	.	.	.	.	.
.	.	.	.	.	.	32bb-\JJJ)	.	.	.	.	.	.	.
.	.	(8f\yy	(8f\	.	.	8aa-\	.	.	.	.	.	.	.
.	.	8B-\)yy	8B-\)	16dd\LL	.	8r	.	.	.	.	.	.	.
.	.	.	.	16ff\JJ	.	.	.	.	.	.	.	.	.
.	.	(8d\yy	(8d\	16aa-\LL	.	4r	.	.	.	.	.	.	.
.	.	.	.	16ff\	.	.	.	.	.	.	.	.	.
.	.	8B-\J)yy	8B-\J)	16dd\	.	.	.	.	.	.	.	.	.
.	.	.	.	16b-\JJ	.	.	.	.	.	.	.	.	.
=29	=29	=29	=29	=29	=29	=29	=29	=29	=29	=29	=29	=29	=29
!	!	!	!	!	!	!	!	!	!	!LO:N:vis=0	!LO:N:vis=0	!LO:N:vis=0	!LO:N:vis=0
.	.	(8e-\Lyy	(8e-\L	8r	.	(8.gg\L	.	2.ryy	2.ryy	1.r	1.r	1.r	1.r
.	.	8B-\)yy	8B-\)	4b-/	.	.	.	.	.	.	.	.	.
.	.	.	.	.	.	32aa-\LL	.	.	.	.	.	.	.
.	.	.	.	.	.	32bb-\JJJ)	.	.	.	.	.	.	.
.	.	(8f\yy	(8f\	.	.	8aa-\	.	.	.	.	.	.	.
.	.	8B-\)yy	8B-\)	16dd\LL	.	8r	.	.	.	.	.	.	.
.	.	.	.	16ff\JJ	.	.	.	.	.	.	.	.	.
.	.	(8d\yy	(8d\	16aa-\LL	.	4r	.	.	.	.	.	.	.
.	.	.	.	16ff\	.	.	.	.	.	.	.	.	.
.	.	8B-\J)yy	8B-\J)	16dd\	.	.	.	.	.	.	.	.	.
.	.	.	.	16b-\JJ	.	.	.	.	.	.	.	.	.
=30	=30	=30	=30	=30	=30	=30	=30	=30	=30	=30	=30	=30	=30
.	.	8.g\Lyy	8.g\L	4b-\	.	8.ee-\L	.	2.ryy	2.ryy	.	.	.	.
.	.	16d\Jkyy	16d\Jk	.	.	16ff\Jk	.	.	.	.	.	.	.
.	.	8e-'\Lyy	8e-'\L	4b-\	.	8gg\L	.	.	.	.	.	.	.
.	.	8f'\yy	8f'\	.	.	8aa-\J	.	.	.	.	.	.	.
!	!	!	!	!	!	!LO:N:vis=32.	!	!	!	!	!	!	!
.	.	8g'\yy	8g'\	32g/KLL	.	32bb-\KLL	.	.	.	.	.	.	.
.	.	.	.	16.e-/JJ	.	16.gg\JJ	.	.	.	.	.	.	.
.	.	8e-'\Jyy	8e-'\J	32g/KLL	.	32bb-\KLL	.	.	.	.	.	.	.
.	.	.	.	16.e-/JJ	.	16.gg\JJ	.	.	.	.	.	.	.
!	!	!	!	!	!	!	!	!	!	!LO:LB:g=original	!	!	!
=31	=31	=31	=31	=31	=31	=31	=31	=31	=31	=31	=31	=31	=31
.	.	4B-/yy	4B-/	4e-/	.	4gg\	.	2.ryy	2.ryy	4r	4r	2.r	2.r
.	.	4B-/yy	4B-/	4d/	.	4ff\	.	.	.	8r	8r	.	.
.	.	.	.	.	.	.	.	.	.	8B-/L	8B-/L	.	.
.	.	4ryy	4r	4r	.	4r	.	.	.	8B-/	8B-/	.	.
.	.	.	.	.	.	.	.	.	.	8B-/J	8B-/J	.	.
!	!	!	!	!LO:LB:g=original	!	!	!	!	!	!	!	!	!
=32	=32	=32	=32	=32	=32	=32	=32	=32	=32	=32	=32	=32	=32
!	!	!	!	!	!	!	!	!	!	!	!	!	!LO:TX:a:t=P:problem:skreślony takt [vide]
!	!	!	!	!	!LO:DY:rj	!	!	!	!	!	!	!	!LO:TX:a:t=vi-// -de //
4E-\	f	4e-\yy	4e-\	8.e-/L	f	8.g/L	f	2.ryy	2.ryy	4E-/	4G/	8.ee-\L	8.gg\L
.	.	.	.	16f/Jk	.	16a-X/Jk	.	.	.	.	.	16ff\Jk	16aa-\Jk
!	!	!	!	!	!	!	!	!	!	!	!LO:LB:g=original	!	!
*	*	*	*	*	*	*	*	*	*	*	*	*tremolo	*tremolo
4EE-/	.	4E-/yy	4E-/	8g/L	.	8b-\L	.	.	.	4r	4r	8gg\L	8bb-\L
.	.	.	.	8g/	.	8b-\	.	.	.	.	.	8gg\	8bb-\
4r	.	4ryy	4r	8g/	.	8b-\	.	.	.	4r	4r	8gg\	8bb-\
.	.	.	.	8g/J	.	8b-\J	.	.	.	.	.	8gg\J	8bb-\J
*	*	*	*	*Xtremolo	*	*Xtremolo	*	*	*	*	*	*Xtremolo	*Xtremolo
!	!	!	!	!	!	!LO:LB:g=original	!	!	!	!	!	!	!
=33	=33	=33	=33	=33	=33	=33	=33	=33	=33	=33	=33	=33	=33
4BB-/	.	4B-/	4B-/	(8.g/L	.	(8.b-\L	.	2.ryy	2.ryy	2.r	2.r	8.gg\L	8.bb-\L
.	.	.	.	16a-/Jk	.	16cc\Jk)	.	.	.	.	.	16aa-\Jk	16ccc\Jk
4BB-/	.	8r	8r	8f/)	.	8a-/	.	.	.	.	.	8ff\L	8aa-\L
.	.	16f'\LL	16a-'\LL	8r	.	8r	.	.	.	.	.	16ff\L	16aa-\L
.	.	16g'\JJ	16b-'\JJ	.	.	.	.	.	.	.	.	16gg\JJ	16bb-\JJ
!	!	!	!	!	!	!	!	!	!	!	!	!LO:LB:g=original	!
4r	.	(16a-\LL	(16cc\LL	4r	.	4r	.	.	.	.	.	16aa-\LL	16ccc\LL
.	.	16g\)	16b-\)	.	.	.	.	.	.	.	.	16gg\	16bb-\
.	.	16f'\	16a-'\	.	.	.	.	.	.	.	.	16ff\	16aa-\
.	.	16e-'\JJ	16g'\JJ	.	.	.	.	.	.	.	.	16ee-\JJ	16gg\JJ
=34	=34	=34	=34	=34	=34	=34	=34	=34	=34	=34	=34	=34	=34
4B-\	.	4d\	4f\	(8.d/L	.	(8.f/L	.	2.ryy	2.ryy	4B-/	4f\	8.dd\L	8.ff\L
.	.	.	.	16e-/K	.	16g/K	.	.	.	.	.	16ee-\K	16gg\K
4BB-/	.	4r	4r	8f/J)	.	8a-/J)	.	.	.	4r	4r	8ff\J	8aa-\J
.	.	.	.	(32en/KLL	.	(32g/KLL	.	.	.	.	.	32een\KLL	32gg\KLL
.	.	.	.	16.f/JJ)	.	16.a-/JJ)	.	.	.	.	.	16.ff\JJ	16.aa-\JJ
4r	.	4r	4r	(32e/KLL	.	(32g/KLL	.	.	.	4r	4r	32ee\KLL	32gg\KLL
.	.	.	.	16.f/JJ)	.	16.a-/JJ)	.	.	.	.	.	16.ff\JJ	16.aa-\JJ
.	.	.	.	(32e/KLL	.	(32g/KLL	.	.	.	.	.	32ee\KLL	32gg\KLL
.	.	.	.	16.f/JJ)	.	16.a-/JJ)	.	.	.	.	.	16.ff\JJ	16.aa-\JJ
!	!	!LO:LB:g=original	!LO:LB:g=original	!	!	!	!	!	!	!	!	!	!
=35	=35	=35	=35	=35	=35	=35	=35	=35	=35	=35	=35	=35	=35
4E-\	.	4e-\	4e-\	(8.f#X/L	.	8.an/L	.	2.ryy	2.ryy	2.r	2.r	8.ff#X\L	8.aan\L
.	.	.	.	16g/Jk	.	16b-/Jk	.	.	.	.	.	16gg\Jk	16bb-\Jk
4E-\	.	8r	8r	8e-/)	.	8g/	.	.	.	.	.	8ee-X\L	8gg\L
.	.	16e-\LL	16g'\LL	8r	.	8r	.	.	.	.	.	16ee-\L	16gg\L
!	!	!	!	!	!	!	!	!	!	!	!	!LO:SIC:s=16ffn:v	!
.	.	16f\JJ	16a-'\JJ	.	.	.	.	.	.	.	.	16ff#\JJ	16aa-X\JJ
4r	.	(16g\LL	(16b-\LL	4r	.	4r	.	.	.	.	.	16gg\LL	16bb-\LL
!	!	!	!	!	!	!	!	!	!	!	!	!LO:SIC:s=16ffn:v	!
.	.	16f\)	16a-\)	.	.	.	.	.	.	.	.	16ff#\	16aa-\
.	.	16e-'\	16g'\	.	.	.	.	.	.	.	.	16ee-\	16gg\
.	.	16d'\JJ	16f'\JJ	.	.	.	.	.	.	.	.	16dd\JJ	16ff\JJ
=36	=36	=36	=36	=36	=36	=36	=36	=36	=36	=36	=36	=36	=36
(8E-\L	.	16e-\LL	4e-\	8r	.	8.g/L	sf	2.ryy	2.ryy	4r	4r	8.gg\L	[<2.bb-\
.	.	16B-\	.	.	.	.	.	.	.	.	.	.	.
8BB-\)	.	16B-\	.	4B-/	.	.	.	.	.	.	.	.	.
.	.	16B-\JJ	.	.	.	32a-X/LL	.	.	.	.	.	32aa-\LL	.
.	.	.	.	.	.	32b-/JJJ	.	.	.	.	.	32bb-\JJJ	.
*	*	*tremolo	*	*	*	*	*	*	*	*	*	*	*
(8F\	.	16B-/LL	4d\	.	.	8a-/	.	.	.	8r	8r	8aa-\	.
.	.	16B-/	.	.	.	.	.	.	.	.	.	.	.
8BB-\)	.	16B-/	.	16d/LL	.	8r	.	.	.	(8B-'/L	(8f'\L	8r	.
.	.	16B-/	.	16f/JJ	.	.	.	.	.	.	.	.	.
(8D\	.	16B-/	4f\	16a-/LL	.	4r	.	.	.	8B-'/	8f'\	4r	.
.	.	16B-/	.	16f/	.	.	.	.	.	.	.	.	.
8BB-\J)	.	16B-/	.	16d/	.	.	.	.	.	8B-'/J)	8f'\J)	.	.
.	.	16B-/JJ	.	16B-/JJ	.	.	.	.	.	.	.	.	.
=37	=37	=37	=37	=37	=37	=37	=37	=37	=37	=37	=37	=37	=37
!	!	!	!	!LO:TX:a:t=P:problem:takt zapisany repetycją	!	!	!	!	!	!	!	!	!
(8E-\L	.	16B-/LL	4e-\	8ryy	.	8.g/L	.	2.ryy	2.ryy	8e-\	8g\	8.gg\L	2.bb-\_<
.	.	16B-/	.	.	.	.	.	.	.	.	.	.	.
8BB-\)	.	16B-/	.	4B-/yy	.	.	.	.	.	8r	8r	.	.
.	.	16B-/	.	.	.	32a-/LL	.	.	.	.	.	32aa-\LL	.
.	.	.	.	.	.	32b-/JJJ	.	.	.	.	.	32bb-\JJJ	.
(8F\	.	16B-/	4d\	.	.	8a-/	.	.	.	8r	8r	8aa-\	.
.	.	16B-/	.	.	.	.	.	.	.	.	.	.	.
8BB-\)	.	16B-/	.	16d/LLyy	.	8r	.	.	.	(8B-'/L	(8f'\L	8r	.
.	.	16B-/	.	16f/JJyy	.	.	.	.	.	.	.	.	.
(8D\	.	16B-/	4f\	16a-/LLyy	.	4r	.	.	.	8B-'/	8f'\	4r	.
.	.	16B-/	.	16f/yy	.	.	.	.	.	.	.	.	.
8BB-\J)	.	16B-/	.	16d/yy	.	.	.	.	.	8B-'/J)	8f'\J)	.	.
.	.	16B-/JJ	.	16B-/JJyy	.	.	.	.	.	.	.	.	.
*	*	*Xtremolo	*	*	*	*	*	*	*	*	*	*	*
=38	=38	=38	=38	=38	=38	=38	=38	=38	=38	=38	=38	=38	=38
!	!	!LO:TX:a:t=P:problem:powtórzenie tt. 38-55 z partii vla I oznaczone skrótem ÷	!	!	!	!	!	!	!	!	!	!	!
8G\L	.	4e-\yy	4e-\	2e-/	.	8.b-\L	.	2.ryy	2.ryy	8e-\	8g\	2ee-\	8.bb-\L]
8A-\J	.	.	.	.	.	.	.	.	.	8r	8r	.	.
.	.	.	.	.	.	16cc\Jk	.	.	.	.	.	.	16ccc\Jk
4B-\	.	4B-/yy	4B-/	.	.	4e-/	.	.	.	4e-\	4g\	.	4ee-\
4BB-/	.	4A-/yy	4A-/	4d/	.	4f/	.	.	.	4B-/	4f\	4ddm\	4ffM\
!LO:LB:g=original	!	!	!	!	!	!	!	!	!	!	!	!	!LO:LB:g=original
=39	=39	=39	=39	=39	=39	=39	=39	=39	=39	=39	=39	=39	=39
4E-\	.	16G\LLyy	16G\LL	16e-'/LL	p	4e-/	.	2.ryy	2.ryy	4G/	4e-\	4ee-\	4ee-\
.	.	16e-'\yy	16e-'\	16g'/	.	.	.	.	.	.	.	.	.
.	.	16d'\yy	16d'\	16f'/	.	.	.	.	.	.	.	.	.
.	.	16e-'\JJyy	16e-'\JJ	16g'/JJ	.	.	.	.	.	.	.	.	.
4r	.	16c'\LLyy	16c'\LL	16e-'/LL	.	8r	.	.	.	4r	4r	4r	4r
.	.	16e-'\yy	16e-'\	16g'/	.	.	.	.	.	.	.	.	.
.	.	16d'\yy	16d'\	16f'/	.	8gg\L	.	.	.	.	.	.	.
.	.	16e-'\JJyy	16e-'\JJ	16g'/JJ	.	.	.	.	.	.	.	.	.
4r	.	16c'\LLyy	16c'\LL	16e-'/LL	.	8gg\	.	.	.	4r	4r	4r	4r
.	.	16e-'\yy	16e-'\	16g'/	.	.	.	.	.	.	.	.	.
.	.	16d'\yy	16d'\	16f'/	.	8gg\J	.	.	.	.	.	.	.
.	.	16e-'\JJyy	16e-'\JJ	16g'/JJ	.	.	.	.	.	.	.	.	.
!	!	!	!	!LO:LB:g=original	!	!	!	!	!	!	!	!	!
=40	=40	=40	=40	=40	=40	=40	=40	=40	=40	=40	=40	=40	=40
!LO:N:vis=00	!	!	!	!	!	!	!	!	!	!LO:N:vis=00	!LO:N:vis=00	!LO:N:vis=00	!LO:N:vis=00
0.r	.	16Bn\LLyy	16Bn\LL	16d/LL	.	4gg\	.	2.ryy	2.ryy	0.r	0.r	0.r	0.r
.	.	16d\yy	16d\	16f/	.	.	.	.	.	.	.	.	.
.	.	16c\yy	16c\	16e-/	.	.	.	.	.	.	.	.	.
.	.	16d\JJyy	16d\JJ	16f/JJ	.	.	.	.	.	.	.	.	.
.	.	16B/LLyy	16B/LL	16d/LL	.	8r	.	.	.	.	.	.	.
.	.	16G/yy	16G/	16f/	.	.	.	.	.	.	.	.	.
.	.	16B/yy	16B/	16d/	.	16ddd\LL	.	.	.	.	.	.	.
.	.	16G/JJyy	16G/JJ	16f/JJ	.	16bbn\JJ	.	.	.	.	.	.	.
!	!	!	!	!	!	!LO:LB:g=original	!	!	!	!	!	!	!
.	.	16B/LLyy	16B/LL	16d/LL	.	8gg\L	.	.	.	.	.	.	.
.	.	16G/yy	16G/	16Bn/	.	.	.	.	.	.	.	.	.
.	.	16B/yy	16B/	16d/	.	8ff\J	.	.	.	.	.	.	.
.	.	16G/JJyy	16G/JJ	16B/JJ	.	.	.	.	.	.	.	.	.
=41	=41	=41	=41	=41	=41	=41	=41	=41	=41	=41	=41	=41	=41
!	!	!	!	!LO:TX:a:t=P:problem:takty 41-42 zapisane repetycją	!	!	!	!	!	!	!	!	!
.	.	16c\LLyy	16c\LL	16e-'/LLyy	p	4ee-\	.	2.ryy	2.ryy	.	.	.	.
.	.	16e-\yy	16e-\	16g'/yy	.	.	.	.	.	.	.	.	.
.	.	16d\yy	16d\	16f'/yy	.	.	.	.	.	.	.	.	.
.	.	16e-\JJyy	16e-\JJ	16g'/JJyy	.	.	.	.	.	.	.	.	.
.	.	16c\LLyy	16c\LL	16e-'/LLyy	.	8r	.	.	.	.	.	.	.
.	.	16e-\yy	16e-\	16g'/yy	.	.	.	.	.	.	.	.	.
.	.	16d\yy	16d\	16f'/yy	.	8gg\L	.	.	.	.	.	.	.
.	.	16e-\JJyy	16e-\JJ	16g'/JJyy	.	.	.	.	.	.	.	.	.
.	.	16c\LLyy	16c\LL	16e-'/LLyy	.	8gg\	.	.	.	.	.	.	.
.	.	16e-\yy	16e-\	16g'/yy	.	.	.	.	.	.	.	.	.
.	.	16d\yy	16d\	16f'/yy	.	8gg\J	.	.	.	.	.	.	.
.	.	16e-\JJyy	16e-\JJ	16g'/JJyy	.	.	.	.	.	.	.	.	.
!	!	!	!	!LO:LB:g=original	!	!	!	!	!	!	!	!	!
=42	=42	=42	=42	=42	=42	=42	=42	=42	=42	=42	=42	=42	=42
.	.	16Bn\LLyy	16Bn\LL	16d/LLyy	.	4gg\	.	2.ryy	2.ryy	.	.	.	.
.	.	16d\yy	16d\	16f/yy	.	.	.	.	.	.	.	.	.
.	.	16c\yy	16c\	16e-/yy	.	.	.	.	.	.	.	.	.
.	.	16d\JJyy	16d\JJ	16f/JJyy	.	.	.	.	.	.	.	.	.
.	.	16B/LLyy	16B/LL	16d/LLyy	.	8r	.	.	.	.	.	.	.
.	.	16G/yy	16G/	16f/yy	.	.	.	.	.	.	.	.	.
.	.	16B/yy	16B/	16d/yy	.	16ddd\LL	.	.	.	.	.	.	.
.	.	16G/JJyy	16G/JJ	16f/JJyy	.	16bbn\JJ	.	.	.	.	.	.	.
.	.	16B/LLyy	16B/LL	16d/LLyy	.	8gg\L	.	.	.	.	.	.	.
.	.	16G/yy	16G/	16Bn/yy	.	.	.	.	.	.	.	.	.
.	.	16B/yy	16B/	16d/yy	.	8ff\J	.	.	.	.	.	.	.
.	.	16G/JJyy	16G/JJ	16B/JJyy	.	.	.	.	.	.	.	.	.
!	!	!LO:PB:g=original	!LO:PB:g=original	!	!	!	!	!	!	!	!	!	!
=43	=43	=43	=43	=43	=43	=43	=43	=43	=43	=43	=43	=43	=43
!	!	!LO:TX:a:t=P:problem:niejednoznaczny zapis artykulacji w tt. 43-47 [przyjęto staccatissimo]	!LO:TX:a:t=P:problem:niejednoznaczny zapis artykulacji w tt. 43-47 [przyjęto staccatissimo]	!	!	!	!	!	!	!	!	!	!
.	.	16c`\LLyy	16c`\LL	(16e-/LL	.	4ee-\	.	2.ryy	2.ryy	.	.	.	.
.	.	(16e-\yy	(16e-\	16g/	.	.	.	.	.	.	.	.	.
.	.	16d\yy	16d\	16f/	.	.	.	.	.	.	.	.	.
.	.	16e-\JJ)yy	16e-\JJ)	16g/JJ)	.	.	.	.	.	.	.	.	.
.	.	16c`\LLyy	16c`\LL	16r	.	16r	.	.	.	.	.	.	.
.	.	(16e-\yy	(16e-\	(16g/LL	.	16gg\LL	.	.	.	.	.	.	.
.	.	16d\yy	16d\	16f#X/	.	16ff#X\	.	.	.	.	.	.	.
.	.	16e-\JJ)yy	16e-\JJ)	16g/JJ)	.	16gg\JJ	.	.	.	.	.	.	.
.	.	16c`\LLyy	16c`\LL	16r	.	16r	.	.	.	.	.	.	.
.	.	(16f\yy	(16f\	(16a-X/LL	.	16aa-X\LL	.	.	.	.	.	.	.
.	.	16en\yy	16en\	16g/	.	16gg\	.	.	.	.	.	.	.
.	.	16f\JJ)yy	16f\JJ)	16a-/JJ)	.	16aa-\JJ	.	.	.	.	.	.	.
=44	=44	=44	=44	=44	=44	=44	=44	=44	=44	=44	=44	=44	=44
!LO:N:vis=00	!	!	!	!	!	!	!	!	!	!LO:N:vis=00	!LO:N:vis=00	!LO:N:vis=00	!LO:N:vis=00
0.r	.	16c`\LLyy	16c`\LL	4g/	.	4gg\	.	2.ryy	2.ryy	0.r	0.r	0.r	0.r
.	.	(16e-X\yy	(16e-X\	.	.	.	.	.	.	.	.	.	.
.	.	16d\yy	16d\	.	.	.	.	.	.	.	.	.	.
.	.	16e-\JJyy)	16e-\JJ)	.	.	.	.	.	.	.	.	.	.
.	.	16c`\LLyy	16c`\LL	16r	.	16r	.	.	.	.	.	.	.
.	.	(16e-\yy	(16e-\	(16g/LL	.	16gg\LL	.	.	.	.	.	.	.
.	.	16d\yy	16d\	16f#X/	.	16ff#X\	.	.	.	.	.	.	.
.	.	16e-\JJ)yy	16e-\JJ)	16g/JJ	.	16gg\JJ	.	.	.	.	.	.	.
.	.	(16f\LLyy	(16f\LL	16a-X/LL	.	16gg\LL	.	.	.	.	.	.	.
.	.	16g\yy	16g\	16b-/)	.	16aa-X\	.	.	.	.	.	.	.
.	.	16a-\)yy	16a-\)	16cc/	.	16ccc\	.	.	.	.	.	.	.
.	.	16f`<\JJyy	16f`<\JJ	16a-/JJ	.	16aa-\JJ	.	.	.	.	.	.	.
=45	=45	=45	=45	=45	=45	=45	=45	=45	=45	=45	=45	=45	=45
.	.	16c\LLyy	16c\LL	4g/	.	4gg\	.	2.ryy	2.ryy	.	.	.	.
.	.	16e-\yy	16e-\	.	.	.	.	.	.	.	.	.	.
.	.	16d\yy	16d\	.	.	.	.	.	.	.	.	.	.
.	.	16e-\JJyy	16e-\JJ	.	.	.	.	.	.	.	.	.	.
.	.	8c`<\Lyy	8c`<\L	16r	.	16r	.	.	.	.	.	.	.
.	.	.	.	(16g/LL	.	(16gg\LL	.	.	.	.	.	.	.
.	.	8c`<\yy	8c`<\	16a-X/	.	16aa-X\	.	.	.	.	.	.	.
.	.	.	.	16g/JJ	.	16gg\JJ	.	.	.	.	.	.	.
!	!	!LO:SIC:s=8A-:v	!LO:SIC:s=8A-:v	!	!	!	!	!	!	!	!	!	!
.	.	8A--\yy	8A--\	16fn/LL	.	16ffn\LL	.	.	.	.	.	.	.
.	.	.	.	16e-/	.	16ee-\	.	.	.	.	.	.	.
!	!	!LO:SIC:s=8A-:v	!LO:SIC:s=8A-:v	!	!	!	!	!	!	!	!	!	!
.	.	8A--\Jyy	8A--\J	16d/	.	16dd\	.	.	.	.	.	.	.
.	.	.	.	16c/JJ	.	16cc\JJ)	.	.	.	.	.	.	.
=46	=46	=46	=46	=46	=46	=46	=46	=46	=46	=46	=46	=46	=46
.	.	[2G/yy	[2G/	16c/LL)	.	16cc\LL	.	2.ryy	2.ryy	.	.	.	.
.	.	.	.	16Bn/	.	16bn\	.	.	.	.	.	.	.
.	.	.	.	16f#X/	.	16ff#X\	.	.	.	.	.	.	.
.	.	.	.	16g/JJ	.	16gg\JJ	.	.	.	.	.	.	.
.	.	.	.	16d/LL	.	16dd\LL	.	.	.	.	.	.	.
.	.	.	.	16c/	.	16cc\	.	.	.	.	.	.	.
.	.	.	.	16B/	.	16b\	.	.	.	.	.	.	.
.	.	.	.	16A-/JJ	.	16a-\JJ	.	.	.	.	.	.	.
.	.	16G/LL]yy	16G/LL]	8G/	.	8g/	.	.	.	.	.	.	.
.	.	16d/yy	16d/	.	.	.	.	.	.	.	.	.	.
.	.	16c/yy	16c/	8r	.	8r	.	.	.	.	.	.	.
.	.	16Bn/JJyy	16Bn/JJ	.	.	.	.	.	.	.	.	.	.
!	!	!	!	!LO:LB:g=original	!	!	!	!	!	!	!	!	!
=47	=47	=47	=47	=47	=47	=47	=47	=47	=47	=47	=47	=47	=47
!	!	!	!	!	!LO:DY:rj	!	!	!	!	!	!	!	!
.	.	16c`\LLyy	16c`\LL	16e-/LL	p	8r	.	2.ryy	2.ryy	.	.	.	.
.	.	16e-`\yy	16e-`\	16g/	.	.	.	.	.	.	.	.	.
.	.	16d`\yy	16d`\	16f/	.	4r	p	.	.	.	.	.	.
.	.	16e-`\JJyy	16e-`\JJ	16g/JJ	.	.	.	.	.	.	.	.	.
.	.	16c\LLyy	16c\LL	16e-/LL	.	.	.	.	.	.	.	.	.
.	.	16e-\yy	16e-\	16g/	.	.	.	.	.	.	.	.	.
.	.	16d\yy	16d\	16f/	.	8gg\L	.	.	.	.	.	.	.
.	.	16e-\JJyy	16e-\JJ	16g/JJ	.	.	.	.	.	.	.	.	.
.	.	16c\LLyy	16c\LL	16e-/LL	.	8gg\	.	.	.	.	.	.	.
.	.	16e-\yy	16e-\	16g/	.	.	.	.	.	.	.	.	.
.	.	16d\yy	16d\	16f/	.	8gg\J	.	.	.	.	.	.	.
.	.	16e-\JJyy	16e-\JJ	16g/JJ	.	.	.	.	.	.	.	.	.
!	!	!	!	!	!	!LO:LB:g=original	!	!	!	!	!	!	!
=48	=48	=48	=48	=48	=48	=48	=48	=48	=48	=48	=48	=48	=48
!LO:N:vis=00	!	!	!	!	!	!	!	!	!	!LO:N:vis=00	!LO:N:vis=00	!LO:N:vis=00	!LO:N:vis=00
0.r	.	16Bn\LLyy	16Bn\LL	16d/LL	.	4gg\	.	2.ryy	2.ryy	0.r	0.r	0.r	0.r
.	.	16d\yy	16d\	16f/	.	.	.	.	.	.	.	.	.
.	.	16c\yy	16c\	16e-/	.	.	.	.	.	.	.	.	.
.	.	16d\JJyy	16d\JJ	16f/JJ	.	.	.	.	.	.	.	.	.
.	.	16B/LLyy	16B/LL	16d/LL	.	8r	.	.	.	.	.	.	.
.	.	16G/yy	16G/	16f/	.	.	.	.	.	.	.	.	.
.	.	16B/yy	16B/	16d/	.	16ddd\LL	.	.	.	.	.	.	.
.	.	16G/JJyy	16G/JJ	16f/JJ	.	16bbn\JJ	.	.	.	.	.	.	.
.	.	16B/LLyy	16B/LL	16d/LL	.	8gg\L	.	.	.	.	.	.	.
.	.	16G/yy	16G/	16Bn/	.	.	.	.	.	.	.	.	.
.	.	16B/yy	16B/	16d/	.	8ff\J	.	.	.	.	.	.	.
.	.	16G/JJyy	16G/JJ	16B/JJ	.	.	.	.	.	.	.	.	.
=49	=49	=49	=49	=49	=49	=49	=49	=49	=49	=49	=49	=49	=49
!	!	!	!	!LO:TX:a:t=P:problem:takty 49-50 zapisane repetycją	!LO:DY:rj	!	!	!	!	!	!	!	!
.	.	16c\LLyy	16c\LL	16e-/LLyy	p	4ee-\	.	2.ryy	2.ryy	.	.	.	.
.	.	16e-\yy	16e-\	16g/yy	.	.	.	.	.	.	.	.	.
.	.	16d\yy	16d\	16f/yy	.	.	.	.	.	.	.	.	.
.	.	16e-\JJyy	16e-\JJ	16g/JJyy	.	.	.	.	.	.	.	.	.
.	.	16c\LLyy	16c\LL	16e-/LLyy	.	8r	.	.	.	.	.	.	.
.	.	16e-\yy	16e-\	16g/yy	.	.	.	.	.	.	.	.	.
.	.	16d\yy	16d\	16f/yy	.	8gg\L	.	.	.	.	.	.	.
.	.	16e-\JJyy	16e-\JJ	16g/JJyy	.	.	.	.	.	.	.	.	.
.	.	16c\LLyy	16c\LL	16e-/LLyy	.	8gg\	.	.	.	.	.	.	.
.	.	16e-\yy	16e-\	16g/yy	.	.	.	.	.	.	.	.	.
.	.	16d\yy	16d\	16f/yy	.	8gg\J	.	.	.	.	.	.	.
.	.	16e-\JJyy	16e-\JJ	16g/JJyy	.	.	.	.	.	.	.	.	.
!	!	!LO:LB:g=original	!LO:LB:g=original	!	!	!	!	!	!	!	!	!	!
=50	=50	=50	=50	=50	=50	=50	=50	=50	=50	=50	=50	=50	=50
.	.	16Bn\LLyy	16Bn\LL	16d/LLyy	.	4gg\	.	2.ryy	2.ryy	.	.	.	.
.	.	16d\yy	16d\	16f/yy	.	.	.	.	.	.	.	.	.
.	.	16c\yy	16c\	16e-/yy	.	.	.	.	.	.	.	.	.
.	.	16d\JJyy	16d\JJ	16f/JJyy	.	.	.	.	.	.	.	.	.
.	.	16B/LLyy	16B/LL	16d/LLyy	.	8r	.	.	.	.	.	.	.
.	.	16G/yy	16G/	16f/yy	.	.	.	.	.	.	.	.	.
.	.	16B/yy	16B/	16d/yy	.	16ddd\LL	.	.	.	.	.	.	.
.	.	16G/JJyy	16G/JJ	16f/JJyy	.	16bbn\JJ	.	.	.	.	.	.	.
.	.	16B/LLyy	16B/LL	16d/LLyy	.	8gg\L	.	.	.	.	.	.	.
.	.	16G/yy	16G/	16Bn/yy	.	.	.	.	.	.	.	.	.
.	.	16B/yy	16B/	16d/yy	.	8ff\J	.	.	.	.	.	.	.
.	.	16G/JJyy	16G/JJ	16B/JJyy	.	.	.	.	.	.	.	.	.
=51	=51	=51	=51	=51	=51	=51	=51	=51	=51	=51	=51	=51	=51
.	.	16c\LLyy	16c\LL	(16e-/LL	.	4ee-\	.	2.ryy	2.ryy	.	.	.	.
.	.	16e-\yy	16e-\	16g/	.	.	.	.	.	.	.	.	.
.	.	16d\yy	16d\	16f/	.	.	.	.	.	.	.	.	.
.	.	16e-\JJyy	16e-\JJ	16g/JJ)	.	.	.	.	.	.	.	.	.
.	.	16c\LLyy	16c\LL	16r	.	16r	.	.	.	.	.	.	.
.	.	16e-\yy	16e-\	(16g/LL	.	(16gg\LL	.	.	.	.	.	.	.
.	.	16d\yy	16d\	16f#X/	.	16ff#X\	.	.	.	.	.	.	.
.	.	16e-\JJyy	16e-\JJ	16g/JJ	.	16gg\JJ	.	.	.	.	.	.	.
.	.	16d\LLyy	16d\LL	16f#/LL	.	16ff#\LL	.	.	.	.	.	.	.
.	.	16e-\yy	16e-\	16g/	.	16gg\	.	.	.	.	.	.	.
.	.	16d\yy	16d\	16f#/	.	16ff#\	.	.	.	.	.	.	.
.	.	16e-\JJyy	16e-\JJ	16g/JJ)	.	16gg\JJ)	.	.	.	.	.	.	.
=52	=52	=52	=52	=52	=52	=52	=52	=52	=52	=52	=52	=52	=52
!LO:N:vis=0	!	!LO:TX:a:t=P:problem:łuk zgodnie z vl I / vl II	!LO:TX:a:t=P:problem:łuk zgodnie z vl I / vl II	!	!	!	!	!	!	!LO:N:vis=00	!LO:N:vis=00	!LO:N:vis=00	!LO:N:vis=00
1.r	.	(16f\LLyy	(16f\LL	(16a-/LL	.	(16aa-X\LL	.	2.ryy	2.ryy	0.r	0.r	0.r	0.r
.	.	16e-\)yy	16e-\)	16g/)	.	16gg\)	.	.	.	.	.	.	.
.	.	16d'\yy	16d'\	16f'/	.	16ffn'\	.	.	.	.	.	.	.
.	.	16c'\JJyy	16c'\JJ	16e-'/JJ	.	16ee-'\JJ	.	.	.	.	.	.	.
.	.	16Bn'\LLyy	16Bn'\LL	16d'/LL	.	16dd'\LL	.	.	.	.	.	.	.
.	.	16c'\yy	16c'\	16e-'/	.	16ee-'\	.	.	.	.	.	.	.
.	.	16d'\yy	16d'\	16f'/	.	16ff'\	.	.	.	.	.	.	.
.	.	16e-'\JJyy	16e-'\JJ	16g'/JJ	.	16gg'\JJ	.	.	.	.	.	.	.
.	.	8f'\yy	8f'\	8a-/	.	8aa-'\	.	.	.	.	.	.	.
.	.	8ryy	8r	8r	.	8r	.	.	.	.	.	.	.
=53	=53	=53	=53	=53	=53	=53	=53	=53	=53	=53	=53	=53	=53
.	.	16f'\LLyy	16f'\LL	(16a-/LL	.	(16aa-\LL	.	2.ryy	2.ryy	.	.	.	.
.	.	16e-'\yy	16e-'\	16g/)	.	16gg\)	.	.	.	.	.	.	.
.	.	16d'\yy	16d'\	16f'/	.	16ff'\	.	.	.	.	.	.	.
.	.	16c'\JJyy	16c'\JJ	16e-'/JJ	.	16ee-'\JJ	.	.	.	.	.	.	.
.	.	16Bn'\LLyy	16Bn'\LL	16d'/LL	.	16dd'\LL	.	.	.	.	.	.	.
.	.	16c'\yy	16c'\	16e-'/	.	16ee-'\	.	.	.	.	.	.	.
.	.	16d'\yy	16d'\	16f'/	.	16ff'\	.	.	.	.	.	.	.
.	.	16e-'\JJyy	16e-'\JJ	16g'/JJ	.	16gg'\JJ	.	.	.	.	.	.	.
.	.	(16f\LLyy	(16f\LL	(16a-/LL	.	(16aa-\LL	.	.	.	.	.	.	.
.	.	16e-\)yy	16e-\)	16g/)	.	16gg\)	.	.	.	.	.	.	.
.	.	16f'\yy	16f'\	16a-'/	.	16aa-'\	.	.	.	.	.	.	.
.	.	16d'\JJyy	16d'\JJ	16f'/JJ	.	16ff'\JJ	.	.	.	.	.	.	.
=54	=54	=54	=54	=54	=54	=54	=54	=54	=54	=54	=54	=54	=54
!LO:N:vis=1	!	!	!	!	!	!	!	!	!	!	!	!	!
2.r	.	8e-\Lyy	8e-\L	8.g/L	.	8.gg\L	.	2.ryy	2.ryy	.	.	.	.
.	.	8f\Jyy	8f\J	.	.	.	.	.	.	.	.	.	.
.	.	.	.	16f/Jk	.	16aa-\Jk	.	.	.	.	.	.	.
!	!	!	!	!LO:LB:g=original	!	!	!	!	!	!	!	!	!
.	.	4g\yy	4g\	4e-/	.	4cc\	.	.	.	.	.	.	.
!	!	!	!	!	!	!LO:TX:a:t=P:problem:niejednoznaczny zapis ozdobnika [przyjęto mordent]:global	!	!	!	!	!	!	!
.	.	4G/yy	4G/	4Bn/	.	4ddm\	.	.	.	.	.	.	.
=55	=55	=55	=55	=55	=55	=55	=55	=55	=55	=55	=55	=55	=55
4r	.	4c\yy	4c\	[4c/	.	4cc\	.	2.ryy	2.ryy	.	.	.	.
!	!	!	!	!LO:TX:a:t=P:problem:mixed beam	!	!	!	!	!	!	!	!	!
4C/	p	16c\LLyy	16c\LL	16c/LL]	.	4r	.	.	.	.	.	.	.
.	.	16cc\yy	16cc\	16ee-\	.	.	.	.	.	.	.	.	.
.	.	16b-X\yy	16b-X\	16dd\	.	.	.	.	.	.	.	.	.
.	.	16a-\JJyy	16a-\JJ	16cc\JJ	.	.	.	.	.	.	.	.	.
4D/	.	16g\LLyy	16g\LL	16b-X/LL	.	4r	.	.	.	.	.	.	.
.	.	16f\yy	16f\	16a-/	.	.	.	.	.	.	.	.	.
.	.	16e-\yy	16e-\	16g/	.	.	.	.	.	.	.	.	.
.	.	16d\JJyy	16d\JJ	16f/JJ	.	.	.	.	.	.	.	.	.
!	!	!	!	!	!	!LO:LB:g=original	!	!	!	!	!	!	!
=56	=56	=56	=56	=56	=56	=56	=56	=56	=56	=56	=56	=56	=56
!	!	!	!	!	!	!	!	!	!	!	!	!LO:TX:a:t=P:problem:brak t. 56	!
4E-\	f	8.e-\L	8.g\L	8.ee-\L	f	8.gg\L	.	2.ryy	2.ryy	8.e-\L	8.g\L	2.ryy	8.gg\L
.	.	16f\Jk	16a-\Jk	16ff\Jk	.	16aa-\Jk	.	.	.	16f\Jk	16a-\Jk	.	16aa-\Jk
*	*	*tremolo	*tremolo	*tremolo	*	*tremolo	*	*	*	*	*	*	*tremolo
4EE-/	.	8g\L	8b-\L	8gg\L	.	8bb-\L	.	.	.	4g\	4b-\	.	8bb-\L
.	.	8g\	8b-\	8gg\	.	8bb-\	.	.	.	.	.	.	8bb-\
4r	.	8g\	8b-\	8gg\	.	8bb-\	.	.	.	4r	4r	.	8bb-\
.	.	8g\J	8b-\J	8gg\J	.	8bb-\J	.	.	.	.	.	.	8bb-\J
*	*	*Xtremolo	*Xtremolo	*Xtremolo	*	*Xtremolo	*	*	*	*	*	*	*Xtremolo
=57	=57	=57	=57	=57	=57	=57	=57	=57	=57	=57	=57	=57	=57
!	!	!	!	!	!	!	!	!	!	!	!	!LO:SIC:s=8.gg:v	!
4BB-/	.	8.g\L	8.b-\L	8.gg\L	.	(8.bb-\L	.	2.ryy	2.ryy	2.r	2.r	8.ee-\L	8.bb-\L
!	!	!	!	!	!	!	!	!	!	!	!	!LO:SIC:s=16aa-:v	!
.	.	16a-\Jk	16cc\Jk	16aa-\Jk	.	16ccc\Jk	.	.	.	.	.	16ff\Jk	16ccc\Jk
4BB-/	.	8f\L	8a-\L	8ff\	.	8aa-\)	.	.	.	.	.	8ff\L	8aa-\L
.	.	16f'\L	16a-'\L	8r	.	8r	.	.	.	.	.	16ff\L	16aa-\L
.	.	16g'\JJ	16b-'\JJ	.	.	.	.	.	.	.	.	16gg\JJ	16bb-\JJ
!	!	!	!	!	!	!	!	!	!	!	!	!LO:LB:g=original	!
4r	.	(16a-\LL	16cc'\LL	4r	.	4r	.	.	.	.	.	16aa-\LL	16ccc\LL
.	.	16g\)	16b-'\	.	.	.	.	.	.	.	.	16gg\	16bb-\
.	.	16f'\	16a-'\	.	.	.	.	.	.	.	.	16ff\	16aa-\
.	.	16e-'\JJ	16g'\JJ	.	.	.	.	.	.	.	.	16ee-\JJ	16gg\JJ
!	!	!	!	!	!	!	!	!	!	!LO:LB:g=original	!	!	!
=58	=58	=58	=58	=58	=58	=58	=58	=58	=58	=58	=58	=58	=58
4B-\	.	8.d\L	8.f\L	(8.dd\L	.	(8.ff\L	.	2.ryy	2.ryy	8.B-\L	8.f\L	8.dd\L	8.ff\L
.	.	16e-\K	16g\Jk	16ee-\K	.	16gg\K	.	.	.	16e-\Jk	16g\Jk	16ee-\K	16gg\K
4BB-/	.	8f\J	8a-\	8ff\J)	.	8aa-\J)	.	.	.	4B-/	4f\	8ff\J	8aa-\J
.	.	(32en\KLL	32g\KLL	(32een\KLL	.	(32gg\KLL	.	.	.	.	.	32een\KLL	32gg\KLL
.	.	16.f\JJ)	16.a-\JJ	16.ff\JJ)	.	16.aa-\JJ)	.	.	.	.	.	16.ff\JJ	16.aa-\JJ
4r	.	(32e\KLL	32g\KLL	32ee\KLL	.	(32gg\KLL	.	.	.	4r	4r	32ee\KLL	32gg\KLL
.	.	16.f\JJ)	16.a-\JJ	16.ff\JJ	.	16.aa-\JJ)	.	.	.	.	.	16.ff\JJ	16.aa-\JJ
.	.	(32e\KLL	32g\KLL	32ee\KLL	.	(32gg\KLL	.	.	.	.	.	32ee\KLL	32gg\KLL
.	.	16.f\JJ)	16.a-\JJ	16.ff\JJ	.	16.aa-\JJ)	.	.	.	.	.	16.ff\JJ	16.aa-\JJ
!	!	!LO:LB:g=original	!LO:LB:g=original	!	!	!	!	!	!	!	!	!	!
=59	=59	=59	=59	=59	=59	=59	=59	=59	=59	=59	=59	=59	=59
4E-\	.	8.f\L	8.an\L	8.ff#X\L	.	(8.aan\L	.	2.ryy	2.ryy	2.r	2.r	8.ff#X\L	8.aan\L
.	.	16g\Jk	16b-\Jk	16gg\Jk	.	16bb-\Jk)	.	.	.	.	.	16gg\Jk	16bb-\Jk
4E-\	.	8e-\L	8g\L	8ee-\	.	8gg\	.	.	.	.	.	8ee-\L	8gg\L
.	.	16e-\L	16g'\L	8r	.	8r	.	.	.	.	.	16ee-\L	16gg\L
!	!	!	!	!	!	!	!	!	!	!	!	!LO:SIC:s=16ffn:v	!
.	.	16f'\JJ	16a-X'\JJ	.	.	.	.	.	.	.	.	16ff#\JJ	16aa-X\JJ
4r	.	16g\LL	(16b-\LL	4r	.	4r	.	.	.	.	.	16gg\LL	16bb-\LL
!	!	!	!	!	!	!	!	!	!	!	!	!LO:SIC:s=16ffn:v	!
.	.	16f\	16a-\)	.	.	.	.	.	.	.	.	16ff#\	16aa-\
.	.	16e-\	16g'\	.	.	.	.	.	.	.	.	16ee-\	16gg\
!	!	!	!	!	!	!	!	!	!	!	!	!	!LO:TX:a:t=//Re-
.	.	16d\JJ	16f'\JJ	.	.	.	.	.	.	.	.	16dd\JJ	16ff\JJ
!	!	!	!	!	!	!	!	!	!	!	!	!	!LO:LB:g=original
=60	=60	=60	=60	=60	=60	=60	=60	=60	=60	=60	=60	=60	=60
!	!	!	!	!	!	!	!	!	!	!	!	!	!LO:TX:a:t=-tro
(8E-\L	.	16e-\LL	4e-\	8r	.	(8.gg\L	sf	2.ryy	2.ryy	4r	4r	8.gg\L	[<2.bb-\
.	.	16B-\	.	.	.	.	.	.	.	.	.	.	.
8BB-\)	.	16B-\	.	4b-\	.	.	.	.	.	.	.	.	.
.	.	16B-\JJ	.	.	.	32aa-X\LL	.	.	.	.	.	32aa-\LL	.
.	.	.	.	.	.	32bb-\JJJ)	.	.	.	.	.	32bb-\JJJ	.
*	*	*tremolo	*	*	*	*	*	*	*	*	*	*	*
(8F\	.	16B-/LL	4d\	.	.	8aa-\	.	.	.	8r	8r	8aa-\	.
.	.	16B-/	.	.	.	.	.	.	.	.	.	.	.
!	!	!	!	!	!	!	!	!	!	!	!LO:LB:g=original	!	!
8BB-\)	.	16B-/	.	16dd\LL	.	8r	.	.	.	8B-/L	(8f'\L	8r	.
.	.	16B-/	.	16ff\JJ	.	.	.	.	.	.	.	.	.
(8D\	.	16B-/	4f\	16aa-\LL	.	4r	.	.	.	8B-/	8f'\	4r	.
.	.	16B-/	.	16ff\	.	.	.	.	.	.	.	.	.
8BB-\J)	.	16B-/	.	16dd\	.	.	.	.	.	8B-/J	8f'\J)	.	.
.	.	16B-/JJ	.	16b-\JJ	.	.	.	.	.	.	.	.	.
=61	=61	=61	=61	=61	=61	=61	=61	=61	=61	=61	=61	=61	=61
!	!	!	!	!LO:TX:a:t=P:problem:takt zapisany repetycją	!	!	!	!	!	!	!	!	!
(8E-\L	.	16B-/LL	4e-\	8ryy	.	(8.gg\L	.	2.ryy	2.ryy	8e-\	8g\	8.gg\L	2.bb-\_<
.	.	16B-/	.	.	.	.	.	.	.	.	.	.	.
8BB-\)	.	16B-/	.	4b-\yy	.	.	.	.	.	8r	8r	.	.
.	.	16B-/	.	.	.	32aa-\LL	.	.	.	.	.	32aa-\LL	.
.	.	.	.	.	.	32bb-\JJJ)	.	.	.	.	.	32bb-\JJJ	.
!	!	!	!	!	!	!LO:TX:a:t=P:problem:brak nuty [8aa-]; uzupełnione zgodnie z tt. 29, 37	!	!	!	!	!	!	!
(8F\	.	16B-/	4d\	.	.	8aa-\yy	.	.	.	8r	8r	8aa-\	.
.	.	16B-/	.	.	.	.	.	.	.	.	.	.	.
8BB-\)	.	16B-/	.	16dd\LLyy	.	8r	.	.	.	8B-/L	(8f'\L	8r	.
.	.	16B-/	.	16ff\JJyy	.	.	.	.	.	.	.	.	.
(8D\	.	16B-/	4f\	16aa-\LLyy	.	4r	.	.	.	8B-/	8f'\	4r	.
.	.	16B-/	.	16ff\yy	.	.	.	.	.	.	.	.	.
8BB-\J)	.	16B-/	.	16dd\yy	.	.	.	.	.	8B-/J	8f'\J)	.	.
.	.	16B-/JJ	.	16b-\JJyy	.	.	.	.	.	.	.	.	.
*	*	*Xtremolo	*	*	*	*	*	*	*	*	*	*	*
=62	=62	=62	=62	=62	=62	=62	=62	=62	=62	=62	=62	=62	=62
8G\L	.	2B-/	4e-\	2ee-\	.	8.bb-\L	.	2.ryy	2.ryy	8e-\	8g\	2ee-\	8.bb-\L]
8A-\J	.	.	.	.	.	.	.	.	.	8r	8r	.	.
.	.	.	.	.	.	16ccc\Jk	.	.	.	.	.	.	16ccc\Jk
4B-\	.	.	4B-/	.	.	4ee-\	.	.	.	4e-\	4g\	.	4ee-\
4BB-/	.	4A-/	4A-/	4dd\	.	4ff\	.	.	.	4B-/	4f\	4ddm\	4ff\
!LO:LB:g=original	!	!	!	!LO:LB:g=original	!	!	!	!	!	!	!	!	!
=63	=63	=63	=63	=63	=63	=63	=63	=63	=63	=63	=63	=63	=63
4C/	f	4G/	4G/	4ee-\	.	4ee-\	.	2.ryy	2.ryy	4G/	4e-\	4ee-\	4ee-\
4r	.	4r	4r	4r	.	4r	.	.	.	4r	4r	4r	4r
4r	.	4r	4r	(16cc\LL	.	(16aa-\LL	.	.	.	4r	4r	4r	4r
.	.	.	.	16b-\	.	16gg\	.	.	.	.	.	.	.
.	.	.	.	16cc\	.	16aa-\	.	.	.	.	.	.	.
.	.	.	.	16b-\JJ)	.	16gg\JJ)	.	.	.	.	.	.	.
=64	=64	=64	=64	=64	=64	=64	=64	=64	=64	=64	=64	=64	=64
.	.	.	.	8qqb-/	.	.	.	.	.	.	.	.	.
!LO:N:vis=0	!	!LO:N:vis=0	!LO:N:vis=0	!	!	!	!	!	!	!LO:N:vis=0	!LO:N:vis=0	!LO:N:vis=1	!LO:N:vis=1
1.r	.	1.r	1.r	4a-/	.	(4ff\	.	2.ryy	2.ryy	1.r	1.r	2.r	2.r
.	.	.	.	8g/	.	8ee-\)	.	.	.	.	.	.	.
.	.	.	.	8r	.	8r	.	.	.	.	.	.	.
!	!	!	!	!	!	!LO:LB:g=original	!	!	!	!	!	!	!
.	.	.	.	(16cc\LL	.	(16aa-\LL	.	.	.	.	.	.	.
.	.	.	.	16b-\	.	16gg\	.	.	.	.	.	.	.
.	.	.	.	16cc\	.	16aa-\	.	.	.	.	.	.	.
.	.	.	.	16b-\JJ)	.	16gg\JJ)	.	.	.	.	.	.	.
=65	=65	=65	=65	=65	=65	=65	=65	=65	=65	=65	=65	=65	=65
.	.	.	.	8qqb-/	.	.	.	.	.	.	.	.	.
.	.	.	.	4a-/	.	4ff\	.	2.ryy	2.ryy	.	.	4r	4r
.	.	.	.	8g/	.	8ee-\	.	.	.	.	.	4r	4r
.	.	.	.	8r	f	8r	.	.	.	.	.	.	.
.	.	.	.	16a-/LL	.	16ccc\LL	.	.	.	.	.	8ee-\L	16ccc\LL
.	.	.	.	16g/	.	16bb-\	.	.	.	.	.	.	16bb-\
.	.	.	.	16a-/	.	16ccc\	.	.	.	.	.	8ee-\J	16ccc\
.	.	.	.	16g/JJ	.	16aa-\JJ	.	.	.	.	.	.	16aa-\JJ
!	!	!	!	!	!	!	!	!	!	!	!	!LO:LB:g=original	!
=66	=66	=66	=66	=66	=66	=66	=66	=66	=66	=66	=66	=66	=66
8G\L	.	2B-/	4e-\	2e-/	.	8.bb-\L	.	2.ryy	2.ryy	4r	4r	2ee-\	8.bb-\L
8A-\J	.	.	.	.	.	.	.	.	.	.	.	.	.
.	.	.	.	.	.	16ccc\Jk	.	.	.	.	.	.	16ccc\Jk
4B-\	.	.	4B-/	.	.	4ee-\	.	.	.	4e-\	4g\	.	4ee-\
4BB-/	.	4A-/	4A-/	4d/	.	4ffM\	.	.	.	4B-/	4f\	4dd\	4ff\
=67	=67	=67	=67	=67	=67	=67	=67	=67	=67	=67	=67	=67	=67
4E-\	.	4G/	4G/	4e-/	.	4ee-\	.	2.ryy	2.ryy	4E-/	4e-\	4ee-\	4ee-\
4r	.	4r	4r	4r	.	4r	.	.	.	4r	4r	4r	4r
!	!	!	!	!	!	!	!	!	!	!	!	!	!LO:LB:g=original
4r	.	(16c\LL	(16a-\LL	4r	.	4r	.	.	.	4r	4r	(16cc\LL	16aa-\LL
.	.	16B-\	16g\	.	.	.	.	.	.	.	.	16b-\	16gg\
.	.	16c\	16a-\	.	.	.	.	.	.	.	.	16cc\	16aa-\
.	.	16B-\JJ)	16g\JJ)	.	.	.	.	.	.	.	.	16b-\JJ)	16gg\JJ
=68	=68	=68	=68	=68	=68	=68	=68	=68	=68	=68	=68	=68	=68
!	!	!	!	!LO:N:vis=1	!	!	!	!	!	!	!	!	!
.	.	8qqB-/	8qqg/	.	.	.	.	.	.	.	.	8qqb-/	8qqgg/
!LO:N:vis=1	!	!	!	!	!	!LO:N:vis=1	!	!	!	!LO:N:vis=1	!LO:N:vis=0	!	!
2.r	.	(4A-/	4f\	2.r	.	2.r	.	2.ryy	2.ryy	2.r	1.r	4a-/	(4ff\
.	.	8G/)	8e-\	.	.	.	.	.	.	.	.	8g/	8ee-\)
.	.	8r	8r	.	.	.	.	.	.	.	.	8r	8r
.	.	(16c\LL	(16a-\LL	.	.	.	.	.	.	.	.	(16cc\LL	(16aa-\LL
.	.	16B-\	16g\	.	.	.	.	.	.	.	.	16b-\	16gg\
.	.	16c\	16a-\	.	.	.	.	.	.	.	.	16cc\	16aa-\
.	.	16B-\JJ)	16g\JJ)	.	.	.	.	.	.	.	.	16b-\JJ)	16gg\JJ)
=69	=69	=69	=69	=69	=69	=69	=69	=69	=69	=69	=69	=69	=69
.	.	8qqB-/	8qqg/	.	.	.	.	.	.	.	.	.	8qqgg/
4r	.	(4A-/	4f\	4r	.	4r	.	2.ryy	2.ryy	4r	.	4a-/	(4ff\
4r	.	8G/)	8e-\	4r	.	4r	.	.	.	8r	.	8g/	8ee-\)
.	.	8r	8r	.	.	.	.	.	.	8e-\L	.	8r	8r
!	!	!LO:TX:a:t=P:problem:powtórzenie tt. 69-74 z partii vla I oznaczone skrótem ÷	!	!	!	!	!	!	!	!	!	!	!
8A-\L	.	16a-\LLyy	16a-\LL	8e-/L	f	16ccc\LL	.	.	.	8e-\	.	8ee-\L	(16ccc\LL
.	.	16g\yy	16g\	.	.	16bb-\	.	.	.	.	.	.	16bb-\
8A-\J	.	16a-\yy	16a-\	8e-/J	.	16ccc\	.	.	.	8e-\J	.	8ee-\J	16ccc\
.	.	16g\JJyy	16g\JJ	.	.	16bb-\JJ	.	.	.	.	.	.	16aa-\JJ)
!	!	!LO:LB:g=original	!LO:LB:g=original	!	!	!	!	!	!	!	!	!	!
=70	=70	=70	=70	=70	=70	=70	=70	=70	=70	=70	=70	=70	=70
8G\L	.	4e-\yy	4e-\	2e-/	.	8.bb-\L	.	2.ryy	2.ryy	8e-\	4r	2ee-\	8.bb-\L
8A-\J	.	.	.	.	.	.	.	.	.	8r	.	.	.
.	.	.	.	.	.	16ccc\Jk	.	.	.	.	.	.	16ccc\Jk
!	!	!	!	!	!	!	!	!	!	!LO:LB:g=original	!	!	!
4B-\	.	8B-/Lyy	8B-/L	.	.	4ee-\	.	.	.	4e-\	4g\	.	4ee-\
.	.	8B-/yy	8B-/	.	.	.	.	.	.	.	.	.	.
4BB-/	.	8A-/yy	8A-/	4d/	.	4ff\	.	.	.	4B-/	4f\	4dd\	4ff\
.	.	8A-/Jyy	8A-/J	.	.	.	.	.	.	.	.	.	.
=71	=71	=71	=71	=71	=71	=71	=71	=71	=71	=71	=71	=71	=71
!	!	!LO:TX:a:t=P:problem:mixed beam	!LO:TX:a:t=P:problem:mixed beam	!	!	!	!	!	!	!	!	!	!
8r	.	(16G/LLyy	(16G/LL	16e-/LL	p	4ee-\	.	2.ryy	2.ryy	4G/	4e-\	4ee-\	4ee-\
.	.	16g\yy	16g\	(16b-/	.	.	.	.	.	.	.	.	.
8E-\L	.	16f\yy	16f\	16a-/	.	.	.	.	.	.	.	.	.
.	.	16g\JJyy	16g\JJ	16b-/JJ	.	.	.	.	.	.	.	.	.
8E-\	.	16e-\LLyy	16e-\LL	16g/LL	.	8r	.	.	.	4r	4r	4r	4r
.	.	16g\yy	16g\	16b-/	.	.	.	.	.	.	.	.	.
8E-\J	.	16f\yy	16f\	16a-/	.	4bb-\	.	.	.	.	.	.	.
.	.	16g\JJyy	16g\JJ	16b-/JJ)	.	.	.	.	.	.	.	.	.
4BB-/	.	16d\LLyy	16d\LL	16B-/LL	.	.	.	.	.	(>4B-/	(4f\	(4a-/	4dd\
.	.	16f\yy	16f\	(16a-/	.	.	.	.	.	.	.	.	.
.	.	16a-\yy	16a-\	16f/	.	8dd\	.	.	.	.	.	.	.
.	.	16f\JJ)yy	16f\JJ)	16d/JJ)	.	.	.	.	.	.	.	.	.
=72	=72	=72	=72	=72	=72	=72	=72	=72	=72	=72	=72	=72	=72
8r	.	(16e-\LLyy	(16e-\LL	16g/LL	.	4ee-\	.	2.ryy	2.ryy	4e-\)	4g\)	4g/)	4ee-\
.	.	16g\yy	16g\	(16b-/	.	.	.	.	.	.	.	.	.
8E-\L	.	16f\yy	16f\	16a-/	.	.	.	.	.	.	.	.	.
.	.	16g\JJyy	16g\JJ	16b-/JJ	.	.	.	.	.	.	.	.	.
8E-\	.	16e-\LLyy	16e-\LL	16g/LL	.	8r	.	.	.	4r	4r	4r	4r
.	.	16g\yy	16g\	16b-/	.	.	.	.	.	.	.	.	.
8E-\J	.	16f\yy	16f\	16a-/	.	4bb-\	.	.	.	.	.	.	.
.	.	16g\JJyy	16g\JJ	16b-/JJ)	.	.	.	.	.	.	.	.	.
!	!	!	!	!LO:LB:g=original	!	!	!	!	!	!	!	!	!
4BB-/	.	16d\LLyy	16d\LL	16B-/LL	.	.	.	.	.	(4B-/	(4f\	4a-/	4dd\
.	.	16f\yy	16f\	(16a-/	.	.	.	.	.	.	.	.	.
.	.	16a-\yy	16a-\	16f/	.	8dd\	.	.	.	.	.	.	.
.	.	16f\JJyy	16f\JJ	16d/JJ)	.	.	.	.	.	.	.	.	.
=73	=73	=73	=73	=73	=73	=73	=73	=73	=73	=73	=73	=73	=73
8r	.	8e-\L)yy	8e-\L)	16g/LL	f	16ee-\LL	.	2.ryy	2.ryy	4e-\)	[4g\)	4g/	4ee-\
.	.	.	.	16b-/	.	16b-\	.	.	.	.	.	.	.
8E-\	.	8e-\Jyy	8e-\J	16ee-/	.	16ee-\	.	.	.	.	.	.	.
.	.	.	.	16b-/JJ	.	16b-\JJ	.	.	.	.	.	.	.
16G\LL	.	16g\LLyy	16g\LL	16ee-/LL	.	16ee-\LL	.	.	.	16e-\LL	16g\LL]	16g/LL	16ee-\LL
16B-\	.	16b-\yy	16b-\	16b-/	.	16b-\	.	.	.	16B-\	16b-\	16b-/	16b-\
16G\	.	16g\yy	16g\	16g/	.	16g\	.	.	.	16G\	16g\	16g/	16g\
16E-\JJ	.	16e-\JJyy	16e-\JJ	16e-/JJ	.	16e-\JJ	.	.	.	16E-\JJ	16e-\JJ	16e-/JJ	16e-\JJ
!	!	!	!	!	!	!LO:LB:g=original	!	!	!	!	!	!	!
!LO:TX:a:t=P:problem:mixed beam	!	!LO:TX:a:t=P:problem:mixed beam	!LO:TX:a:t=P:problem:mixed beam	!	!	!	!	!	!	!	!LO:TX:a:t=P:problem:mixed beam	!	!
8B-\L	.	8b-\Lyy	8b-\L	8b-/L	.	8b-/L	.	.	.	8B-/L	8b-\L	8b-/L	8b-\L
8BB-/J	.	8B-/Jyy	8B-/J	8dJ 8A-/	.	8dJ 8A-/	.	.	.	8B-/J	8B-/J	8f/J	8dd\J
!LO:LB:g=original	!	!	!	!	!	!	!	!	!	!	!	!	!
=74	=74	=74	=74	=74	=74	=74	=74	=74	=74	=74	=74	=74	=74
!LO:TX:a:t=P:problem:mixed beam	!	!LO:TX:a:t=P:problem:mixed beam	!LO:TX:a:t=P:problem:mixed beam	!	!	!	!	!	!	!	!	!	!
8EE-/L	.	8e-\Lyy	8e-\L	8e-L 8G/	.	8e-L 8G/	.	2.ryy	2.ryy	8G/L	8e-\L	4g/	4ee-\
8E-\J	.	8E-/Jyy	8E-/J	8B-/J	.	8B-/J	.	.	.	8B-/J	8B-\J	.	.
4EE-/	.	4E-/yy	4E-/	4e- 4G/	.	4e- 4G/	.	.	.	4G/	4e-\	4r	4r
4r	.	4ryy	4r	4r	.	4r	.	.	.	4r	4r	4r	4r
!	!	!LO:TX:a:t=P:problem:kreska taktowa koniec/początek repetycji	!LO:TX:a:t=P:problem:kreska taktowa koniec/początek repetycji	!	!	!	!	!	!	!	!	!	!
==	==	==;	==;	==	==	==	==	==	==	==	==	==	==
*-	*-	*-	*-	*-	*-	*-	*-	*-	*-	*-	*-	*-	*-
!!!system-decoration: [g1][g2][g3]
!!!RDF**kern: > = above
!!!RDF**kern: < = below
!!!RDF**kern: i = editorial accidental
!!!RDF**dynam: p = "p."
!!!RDF**dynam: f = "f."
!!!RDF**dynam: sf = "sf."
!!!ENC: Marta Lawrence
!!!END: 2020-08-30
!!!ENC: Andrzej Kubiczek
!!!END: 2020-05-14
